!!!!SEGMENT: pl-kk--kk-i-7--016_anonim--mittit-ad-virginem.krn
!!!cenid: 16xx:806
!!!COM: Anonim
!!!COM-rismID: pe30004985
!!!CDT:
!!!CNT:
!!!OTL: Mittit ad virginem
!!!PDT:
!!!AGN: Sacred
!!!SMS-siglum: PL-Kk
!!!SMS-shelfmark: Kk.I.7
!!!SMS-shelfwork: 016 W
!!!SMS-variant:
!!!SMS-altvar:
!!!NIFC-rismSourceID: 300258093
!!!NIFC-islandoraID: pl-kk:1956
!!!URL-pdf-islandora: https://repozytorium.nifc.pl/islandora/object/pl-kk%3A1956/datastream/PDF/view
!!!URL-scan: https://polish.musicsources.pl/pl/lokalizacje/galeria/rekopisy/6140 @EN{Scan on Polish Music Herritage in Open Access Website} @PL{Skany w portalu Dziedzictwo Muzyki Polskiej w otwartym dostępie}
!!!ONB-nifc: UWAGA: C (skan 0012-0013, s.18-20), A (0099, s.18-19), T(0175-0176, s.14-16), B(0264-0265, s.18-20). Następny utwór: Ave Hierarchia
!!!AIN: 1 alto 1 bass 1 soprn 1 tenor
!!!key:
**kern	**text	**text	**kern	**text	**text	**kern	**text	**text	**kern	**text	**text
*part4	*part4	*part4	*part3	*part3	*part3	*part2	*part2	*part2	*part1	*part1	*part1
*staff4	*staff4	*staff4	*staff3	*staff3	*staff3	*staff2	*staff2	*staff2	*staff1	*staff1	*staff1
*Ibass	*	*	*Itenor	*	*	*Ialto	*	*	*Isoprn	*	*
*I"BASSVS.	*	*	*I"TENOR.	*	*	*I"ALTVS.	*	*	*I"CANTVS.	*	*
*I'B	*	*	*I'T	*	*	*I'A	*	*	*I'S	*	*
*clefF4	*	*	*clefC4	*	*	*clefC4	*	*	*clefC3	*	*
*k[b-]	*	*	*k[b-]	*	*	*k[b-]	*	*	*k[b-]	*	*
*F:	*	*	*F:	*	*	*F:	*	*	*F:	*	*
*M2/1	*	*	*M2/1	*	*	*M2/1	*	*	*M2/1	*	*
*met(c|)	*	*	*met(c|)	*	*	*met(c|)	*	*	*met(c|)	*	*
=1-	=1-	=1-	=1-	=1-	=1-	=1-	=1-	=1-	=1-	=1-	=1-
*all\right	*	*	*	*	*	*all\right	*	*	*all\right	*	*
!	!	!	!	!	!	!	!	!	!LO:TX:a:B:t=PROSA.	!	!
!LO:TX:t=P:problem=przed kluczem inicjał M	!	!	!LO:TX:t=P:problem=przed kluczem inicjały M, F	!	!	!LO:TX:t=P:problem=przed kluczem inicjał M	!	!	!LO:TX:t=P:problem=przed kluczem inicjały M, F	!	!
1C	Mit-	For-	1C	Mit-	For-	1G	Mit-	For-	1c	Mit-	For-
!LO:TX:t=P:problem=kreska pseudotaktowa	!	!	!LO:TX:t=P:problem=kreska pseudotaktowa	!	!	!LO:TX:t=P:problem=kreska pseudotaktowa	!	!	!LO:TX:t=P:problem=kreska pseudotaktowa	!	!
1FF	-tit	-tem	1F	-tit	-tem	1A	-tit	-tem	1c	-tit	-tem
=2-	=2-	=2-	=2-	=2-	=2-	=2-	=2-	=2-	=2-	=2-	=2-
!	!	!	!LO:TX:t=P:problem=kreska pseudotaktowa	!	!	!	!	!	!	!	!
1BB-	ad	ex-	1F	ad	ex-	1B-	ad	ex-	1d	ad	ex-
!	!	!	!	!	!	!	!	!	!LO:TX:t=P:problem=kreska pseudotaktowa	!	!
1GG	Vir-	-pe-	1G	Vir-	-pe-	1B-	Vir-	-pe-	1d	Vir-	-pe-
=3-	=3-	=3-	=3-	=3-	=3-	=3-	=3-	=3-	=3-	=3-	=3-
!LO:TX:t=P:problem=kreska pseudotaktowa	!	!	!	!	!	!	!	!	!	!	!
1C	-gi-	-di-	1E	-gi-	-di-	1G	-gi-	-di-	1c	-gi-	-di-
!	!	!	!LO:TX:t=P:problem=kreska pseudotaktowa	!	!	!LO:TX:t=P:problem=kreska pseudotaktowa	!	!	!	!	!
2FF/	-n(em)	-at	1F	-nem	-at	1A	-nem	-at	2A/	-nem	-at
!	!	!	!	!	!	!	!	!	!LO:TX:t=P:problem=kreska pseudotaktowa	!	!
1F\	non	pro	.	.	.	.	.	.	2c/	non	pro
=4-	=4-	=4-	=4-	=4-	=4-	=4-	=4-	=4-	=4-	=4-	=4-
*	*	*	*	*	*	*	*	*	*2\right	*	*
.	.	.	1G	non	pro	2r	.	.	2d\	quem-	no-
*2\right	*	*	*	*	*	*2\right	*	*	*	*	*
!LO:TX:t=P:problem=kreska pseudotaktowa	!	!	!	!	!	!	!	!	!	!	!
2E\	.	.	.	.	.	2c\	non	pro	2e\	.	.
2D/	quem-	no-	1A	quem-	no-	2d\	quem-	no-	2f\	-uis	-bis
!	!	!	!	!	!	!LO:TX:t=P:problem=kreska pseudotaktowa	!	!	!LO:TX:t=P:problem=kreska pseudotaktowa	!	!
2C/	-uis	-bis	.	.	.	2e\	.	.	2e\	.	.
=5-	=5-	=5-	=5-	=5-	=5-	=5-	=5-	=5-	=5-	=5-	=5-
!	!	!	!LO:TX:t=P:problem=kreska pseudotaktowa	!	!	!	!	!	!	!	!
1BB-	An-	nun-	1B-	-uis	-bis	2f\	-uis	-bis	1d	An-	nun-
.	.	.	.	.	.	1F	An-	nun-	.	.	.
!LO:TX:t=P:problem=kreska pseudotaktowa	!	!	!	!	!	!	!	!	!	!	!
1FF	-ge-	-ci-	1A	An-	nun-	.	.	.	2c/	.	.
.	.	.	.	.	.	1c\	.	.	1f\	-ge-	-ci-
=6-	=6-	=6-	=6-	=6-	=6-	=6-	=6-	=6-	=6-	=6-	=6-
1C	-lum	-um	1G	-ge-	-ci-	.	.	.	.	.	.
!	!	!	!	!	!	!LO:TX:t=P:problem=kreska pseudotaktowa	!	!	!LO:TX:t=P:problem=kreska pseudotaktowa	!	!
.	.	.	.	.	.	2c\	-ge-	-ci-	2e\	.	.
!	!	!	!LO:TX:t=P:problem=kreska pseudotaktowa	!	!	!	!	!	!	!	!
1.D	Sed	Na-	1F	-lum	-um	1A	-lum	-um	2f\	-lum	-um
*	*	*	*	*	*	*	*	*	*custos:e	*	*
.	.	.	.	.	.	.	.	.	1f\	Sed	Na-
=7-	=7-	=7-	=7-	=7-	=7-	=7-	=7-	=7-	=7-	=7-	=7-
.	.	.	1A	Sed	Na-	2r	.	.	.	.	.
!	!	!	!	!	!	!	!	!	!LO:LB:g=original	!	!
!	!	!	!	!	!	!LO:TX:t=P:problem=kreska pseudotaktowa	!	!	!	!	!
4C/	.	-tu-	.	.	.	2D/	sed	na-	4e\	.	.
!LO:TX:t=P:problem=kreska pseudotaktowa	!	!	!	!	!	!	!	!	!LO:TX:t=P:problem=kreska pseudotaktowa	!	!
4BB-/	.	.	.	.	.	.	.	.	4d\	.	.
2AA/	for-	.	1c	for-	-tu-	2E/	for-	-tu-	2c/	.	.
2AA/	-ti-	-rae	.	.	.	2F/	-ti-	-rae	2A/	for-	-tu-
=8-	=8-	=8-	=8-	=8-	=8-	=8-	=8-	=8-	=8-	=8-	=8-
4GG/	-tu-	fa-	1B-	-ti-	-rae	1G	-tu-	fa-	2B-/	-ti-	-ræ
4AA/	.	.	.	.	.	.	.	.	.	.	.
4BB-/	.	.	.	.	.	.	.	.	1d	-tu-	fa-
!LO:TX:t=P:problem=kreska pseudotaktowa	!	!	!	!	!	!	!	!	!	!	!
4C/	.	.	.	.	.	.	.	.	.	.	.
!	!	!	!	!	!	!LO:TX:t=P:problem=kreska pseudotaktowa	!	!	!	!	!
4D/	.	.	1A	-tu-	fa-	1F	-di-	-ci-	.	.	.
4E/	.	.	.	.	.	.	.	.	.	.	.
!	!	!	!	!	!	!	!	!	!LO:TX:t=P:problem=kreska pseudotaktowa	!	!
1F\	.	.	.	.	.	.	.	.	2c/	-di-	-ci-
=9-	=9-	=9-	=9-	=9-	=9-	=9-	=9-	=9-	=9-	=9-	=9-
!	!	!	!	!	!	!	!	!	!LO:TX:t=P:problem=kreska pseudotaktowa	!	!
.	.	.	1G	-di-	-ci-	2c\	-nem	-at	1c	-nem	-at
!LO:TX:t=P:problem=kreska pseudotaktowa	!	!	!	!	!	!	!	!	!	!	!
2E\	-di-	-ci-	.	.	.	1c	Su-	Vt	.	.	.
!	!	!	!LO:TX:t=P:problem=kreska pseudotaktowa	!	!	!	!	!	!	!	!
1D	-nem	-at	1F	-nem	-at	.	.	.	2r	.	.
*	*	*	*	*	*	*	*	*	*2\left	*	*
!	!	!	!	!	!	!LO:TX:t=P:problem=kreska pseudotaktowa	!	!	!	!	!
.	.	.	.	.	.	2B-\	.	.	2d\	Su-	Vt
=10-	=10-	=10-	=10-	=10-	=10-	=10-	=10-	=10-	=10-	=10-	=10-
*	*	*	*lig	*	*	*	*	*	*2\right	*	*
!	!	!	!	!	!	!LO:SIC:v:l:s=-um:verse 1	!	!	!	!	!
2C/	.	.	1E	Su-	Vt	1c	-am	prae-	2e\	.	.
*custos:D	*	*	*	*	*	*	*	*	*	*	*
!LO:TX:t=P:problem=kreska pseudotaktowa	!	!	!	!	!	!	!	!	!	!	!
!	!	!	!	!	!	!	!	!	!LO:TX:t=P:problem=kreska pseudotaktowa	!	!
2C/	Su-	Vt	.	.	.	.	.	.	2g\	.	prae-
!LO:LB:g=original	!	!	!	!	!	!LO:TX:t=P:problem=kreska pseudotaktowa	!	!	!LO:SIC:v:l:s=-um:verse 1	!	!
1D	.	.	1F	.	.	1A	Ar-	-iu-	2f\	-am	-ju-
.	.	.	.	.	.	.	.	.	2.d\	Ar-	-di-
*	*	*	*Xlig	*	*	*	*	*	*	*	*
=11-	=11-	=11-	=11-	=11-	=11-	=11-	=11-	=11-	=11-	=11-	=11-
!	!	!	!LO:SIC:v:l:s=-um:verse 1	!	!	!	!	!	!	!	!
!	!	!	!LO:TX:t=P:problem=kreska pseudotaktowa	!	!	!	!	!	!	!	!
4GG/	-am	prae-	1G	-am	prae-	1B-	-chan-	-di-	.	.	.
4AA/	.	.	.	.	.	.	.	.	4c/	.	.
4BB-/	.	.	.	.	.	.	.	.	4d\	.	.
!LO:TX:t=P:problem=kreska pseudotaktowa	!	!	!	!	!	!	!	!	!LO:TX:t=P:problem=kreska pseudotaktowa	!	!
4C/	.	.	.	.	.	.	.	.	4e\	.	.
2D/	Ar-	-iu-	1D	Ar-	-iu-	2A/	.	.	2f\	.	.
2BB-/	-chan-	-di-	.	.	.	2B-\	-ge-	-ci-	2.d\	.	.
=12-	=12-	=12-	=12-	=12-	=12-	=12-	=12-	=12-	=12-	=12-	=12-
*	*	*	*	*	*	*custos:G	*	*	*	*	*
!	!	!	!	!	!	!LO:TX:t=P:problem=kreska pseudotaktowa	!	!	!	!	!
1C	-ge-	-ci-	1E	-chan-	-di-	1G	-lum	-um	.	.	.
.	.	.	.	.	.	.	.	.	4c/	.	.
.	.	.	.	.	.	.	.	.	1c	-chan-	.
*	*	*	*custos:C	*	*	*	*	*	*	*	*
!	!	!	!	!	!	!LO:LB:g=original	!	!	!	!	!
!LO:TX:t=P:problem=kreska pseudotaktowa	!	!	!	!	!	!	!	!	!	!	!
1GG	-lum	-um	1D	-ge-	-ci-	2.G/	.	.	.	.	.
!	!	!	!	!	!	!	!	!	!LO:TX:t=P:problem=kreska pseudotaktowa	!	!
.	.	.	.	.	.	.	.	.	2B-/	-ge-	-ci-
.	.	.	.	.	.	4F/	.	.	.	.	.
!	!	!	!LO:LB:g=original	!	!	!	!	!	!	!	!
=13-	=13-	=13-	=13-	=13-	=13-	=13-	=13-	=13-	=13-	=13-	=13-
!	!	!	!LO:TX:t=P:problem=kreska pseudotaktowa	!	!	!	!	!	!	!	!
2.G\	a-	in	1C	-lum	-um	2.E/	.	.	1c	-lum	-um
!	!	!	!	!	!	!LO:TX:t=P:problem=kreska pseudotaktowa	!	!	!	!	!
4F\	.	.	.	.	.	4D/	.	.	.	.	.
2E\	ma-	par-	1G	a-	in	2C/	.	.	2r	.	.
!LO:TX:t=P:problem=kreska pseudotaktowa	!	!	!	!	!	!	!	!	!LO:TX:t=P:problem=kreska pseudotaktowa	!	!
2C/	-tor	-tu	.	.	.	1c\	a-	in	2e\	a-	in
=14-	=14-	=14-	=14-	=14-	=14-	=14-	=14-	=14-	=14-	=14-	=14-
1D	h(o-	Vir-	1F	-ma-	par-	.	.	.	2d\	.	.
!	!	!	!	!	!	!LO:TX:t=P:problem=kreska pseudotaktowa	!	!	!	!	!
.	.	.	.	.	.	2B-\	-ma-	par-	1f	-ma-	par-
*	*	*	*lig	*	*	*	*	*	*	*	*
1C	-mi)-	-gi-	1G	-tor	.	1c	-tor	-tu	.	.	.
!	!	!	!	!	!	!	!	!	!LO:TX:t=P:problem=kreska pseudotaktowa	!	!
.	.	.	.	.	.	.	.	.	2e\	.	.
=15-	=15-	=15-	=15-	=15-	=15-	=15-	=15-	=15-	=15-	=15-	=15-
!LO:TX:t=P:problem=kreska pseudotaktowa	!	!	!	!	!	!LO:TX:t=P:problem=kreska pseudotaktowa	!	!	!	!	!
1FF	-nis	-nis	1A	.	.	1c	Ho-	Vir-	2f\	-tor	-tu
.	.	.	.	.	.	.	.	.	2F/	ho-	Vir-
*	*	*	*Xlig	*	*	*	*	*	*	*	*
!	!	!	!LO:TX:t=P:problem=kreska pseudotaktowa	!	!	!	!	!	!	!	!
2r	.	.	1F	.	-tu	2A\	.	.	2c/	.	.
*	*ij	*ij	*	*	*	*	*	*	*	*	*
!	!	!	!	!	!	!	!	!	!LO:TX:t=P:problem=kreska pseudotaktowa	!	!
2BB-/	a-	in	.	.	.	2B-\	.	.	2d\	.	.
=16-	=16-	=16-	=16-	=16-	=16-	=16-	=16-	=16-	=16-	=16-	=16-
*	*	*	*lig	*	*	*	*	*	*	*	*
2AA/	-ma-	par-	1F	ho-	Vir-	2c\	.	.	2c/	.	.
!LO:TX:t=P:problem=kreska pseudotaktowa	!	!	!	!	!	!LO:TX:t=P:problem=kreska pseudotaktowa	!	!	!	!	!
2BB-/	-tor	-tu	.	.	.	2d\	.	.	1B-	.	.
1C	h(o-	Vir-	1E	.	.	1c	.	.	.	.	.
!	!	!	!	!	!	!	!	!	!LO:TX:t=P:problem=kreska pseudotaktowa	!	!
.	.	.	.	.	.	.	.	.	2A/	.	.
*	*	*	*Xlig	*	*	*	*	*	*	*	*
=17-	=17-	=17-	=17-	=17-	=17-	=17-	=17-	=17-	=17-	=17-	=17-
2BB-/	.	.	1D	.	.	1F	-mi-	-gi-	2B-/	.	.
2D/	.	.	.	.	.	.	.	.	4A/	.	.
.	.	.	.	.	.	.	.	.	4B-/	.	.
1C	-mi)-	-gi-	1E	-mi-	-gi-	1G	.	.	1c	-mi-	-gi-
=18-	=18-	=18-	=18-	=18-	=18-	=18-	=18-	=18-	=18-	=18-	=18-
!	!	!	!	!	!	!LO:N:vis=1	!	!	!	!	!
0FFl;	-nis	-nis	0F;	-nis.	-nis.	0A;	-nis.	-nis.	0cl;	-nis.	-nis.
*	*Xij	*Xij	*	*	*	*	*	*	*	*	*
!LO:LB:g=original	!	!	!	!	!	!	!	!	!LO:LB:g=original	!	!
=19||	=19||	=19||	=19||	=19||	=19||	=19||	=19||	=19||	=19||	=19||	=19||
*M2/1	*	*	*M2/1	*	*	*M2/1	*	*	*M2/1	*	*
*met(c|)	*	*	*met(c|)	*	*	*met(c|)	*	*	*met(c|)	*	*
!LO:TX:t=P:problem=przed kluczem inicjały N, S	!	!	!LO:TX:t=P:problem=przed kluczem inicjały N, S	!	!	!	!	!	!LO:TX:t=P:problem=przed kluczem inicjały N, S	!	!
!	!	!	!	!	!	!LO:TX:t=P:problem=przed kluczem inicjał N	!	!	!	!	!
0AA	Na-	Su-	1A	Na-	Su-	1r	.	.	1.e	Na-	Su-
.	.	.	1c	-tu-	-per-	0E	Na-	Super-	.	.	.
.	.	.	.	.	.	.	.	.	4d\	.	-per
!	!	!	!	!	!	!	!	!	!LO:TX:t=P:problem=kreska pseudotaktowa	!	!
.	.	.	.	.	.	.	.	.	4c/	.	.
=20-	=20-	=20-	=20-	=20-	=20-	=20-	=20-	=20-	=20-	=20-	=20-
!LO:TX:t=P:problem=kreska pseudotaktowa	!	!	!LO:TX:t=P:problem=kreska pseudotaktowa	!	!	!	!	!	!	!	!
1C	-tu-	-per-	1c	-ram	-bi-	.	.	.	2e\	.	bien-
.	.	.	.	.	.	.	.	.	2e\	-tu-	-ti-
!	!	!	!	!	!	!	!	!	!LO:TX:t=P:problem=kreska pseudotaktowa	!	!
4GG/	-ram	-bi-	1B-	Su-	-en-	1G	-tu-	-bien-	0d	-ram	-(um)
4AA/	.	.	.	.	.	.	.	.	.	.	.
4BB-/	.	.	.	.	.	.	.	.	.	.	.
!LO:TX:t=P:problem=kreska pseudotaktowa	!	!	!	!	!	!	!	!	!	!	!
4C/	.	.	.	.	.	.	.	.	.	.	.
=21-	=21-	=21-	=21-	=21-	=21-	=21-	=21-	=21-	=21-	=21-	=21-
!	!	!	!	!	!	!LO:TX:t=P:problem=kreska pseudotaktowa	!	!	!	!	!
4D/	.	.	1A	-pe-	-ti-	1D	-r(am)	-tium	.	.	.
4E\	.	.	.	.	.	.	.	.	.	.	.
1F	Su-	-en-	.	.	.	.	.	.	.	.	.
!	!	!	!LO:TX:t=P:problem=kreska pseudotaktowa	!	!	!	!	!	!	!	!
.	.	.	1G	-ret	-um	2r	.	.	2r	.	.
!	!	!	!	!	!	!	!	!	!LO:TX:t=P:problem=kreska pseudotaktowa	!	!
!LO:TX:t=P:problem=kreska pseudotaktowa	!	!	!	!	!	!LO:SIC:v:l:s=-te-:verse 2	!	!	!	!	!
2E\	.	-ti-	.	.	.	2G/	Su-	ter-	2c/	Su-	te-
=22-	=22-	=22-	=22-	=22-	=22-	=22-	=22-	=22-	=22-	=22-	=22-
2D/	-pe-	-um	1A	na-	ter-	2F/	-pe-	.	2d\	-pe-	.
!	!	!	!	!	!	!LO:TX:t=P:problem=kreska pseudotaktowa	!	!	!	!	!
2C/	-ret	te-	.	.	.	2E/	-ret	.	2e\	-ret	.
!LO:TX:t=P:problem=kreska pseudotaktowa	!	!	!LO:TX:t=P:problem=kreska pseudotaktowa	!	!	!	!	!	!	!	!
1D	na-	.	1F	-tus	-rat	2D/	na-	-rat	2f\	na-	-rat
!	!	!	!	!	!	!	!	!	!LO:TX:t=P:problem=kreska pseudotaktowa	!	!
.	.	.	.	.	.	2A/	-t(us)	fas-	2d\	.	.
=23-	=23-	=23-	=23-	=23-	=23-	=23-	=23-	=23-	=23-	=23-	=23-
!	!	!	!LO:TX:t=P:problem=kreska pseudotaktowa	!	!	!	!	!	!	!	!
2GG/	-t(us)	-rat	1B-	Rex	fa-	1G	Rex	-ti-	2.d\	-tus	fas-
2G\	.	fa-	.	.	.	.	.	.	.	.	.
.	.	.	.	.	.	.	.	.	4e\	.	.
!	!	!	!	!	!	!LO:TX:t=P:problem=kreska pseudotaktowa	!	!	!	!	!
2D/	.	-sti-	1A	glo-	-ſti-	1F	glo-	.	2f\	Rex	-ti-
!LO:TX:t=P:problem=kreska pseudotaktowa	!	!	!	!	!	!	!	!	!	!	!
2F\	Rex	-gi-	.	.	.	.	.	.	1d\	glo-	-gi-
=24-	=24-	=24-	=24-	=24-	=24-	=24-	=24-	=24-	=24-	=24-	=24-
*	*	*	*	*	*	*custos:F	*	*	*	*	*
1E	glo-	-a	1G	-ri-	-gi-	1G	-ri-	-gi-	.	.	.
!	!	!	!	!	!	!	!	!	!LO:TX:t=P:problem=kreska pseudotaktowa	!	!
.	.	.	.	.	.	.	.	.	2c/	-ri-	.
*	*	*	*custos:A	*	*	*	*	*	*	*	*
!	!	!	!	!	!	!LO:LB:g=original	!	!	!	!	!
!	!	!	!LO:TX:t=P:problem=kreska pseudotaktowa	!	!	!	!	!	!	!	!
!	!	!	!	!	!	!LO:TX:t=P:problem=kreska pseudotaktowa	!	!	!	!	!
1D	-ri-	Col-	1A	-ae	-a	1F	-ae	-a	2d\	-ae	-a
.	.	.	.	.	.	.	.	.	2d\	Re-	Col-
!	!	!	!LO:LB:g=original	!	!	!	!	!	!	!	!
=25-	=25-	=25-	=25-	=25-	=25-	=25-	=25-	=25-	=25-	=25-	=25-
!LO:TX:t=P:problem=kreska pseudotaktowa	!	!	!	!	!	!	!	!	!LO:TX:t=P:problem=kreska pseudotaktowa	!	!
1D	-ae	-la	1A	re-	col-	2r	.	.	1f	-gnat	-la
.	.	.	.	.	.	2A/	Re-	col-	.	.	.
!	!	!	!LO:TX:t=P:problem=kreska pseudotaktowa	!	!	!LO:TX:t=P:problem=kreska pseudotaktowa	!	!	!	!	!
2AA/	Re-	Su-	1c	-gnat	-la	1A	-gnat	-la	2e\	et	Su-
1C/	-gnet	-bli-	.	.	.	.	.	.	1e\	im-	-bli-
=26-	=26-	=26-	=26-	=26-	=26-	=26-	=26-	=26-	=26-	=26-	=26-
!	!	!	!LO:TX:t=P:problem=kreska pseudotaktowa	!	!	!	!	!	!	!	!
.	.	.	1c	et	Su-	2E/	et	Su-	.	.	.
!LO:SIC:v:l:s=-gnat:verse 1	!	!	!	!	!	!	!	!	!	!	!
!LO:TX:t=P:problem=kreska pseudotaktowa	!	!	!	!	!	!	!	!	!LO:TX:t=P:problem=kreska pseudotaktowa	!	!
2C/	et	-mi-	.	.	.	1G	im-	bli-	2e\	-pe-	-mi-
!	!	!	!	!	!	!	!	!	!LO:TX:t=P:problem=kreska pseudotaktowa	!	!
2GG/	im-	-um	1B-	im-	-bli-	.	.	.	0d	-rat	-um
!	!	!	!	!	!	!LO:TX:t=P:problem=kreska pseudotaktowa	!	!	!	!	!
1G\	-pe-	cal-	.	.	.	2G/	-pe-	-mi-	.	.	.
=27-	=27-	=27-	=27-	=27-	=27-	=27-	=27-	=27-	=27-	=27-	=27-
!	!	!	!	!	!	!LO:TX:t=P:problem=kreska pseudotaktowa	!	!	!	!	!
.	.	.	1A	-pe-	-mi-	1D	-rat	-um	.	.	.
!LO:TX:t=P:problem=kreska pseudotaktowa	!	!	!	!	!	!	!	!	!	!	!
2F\	-ret	-cet	.	.	.	.	.	.	.	.	.
!LO:SIC:v:l:s=-rat:verse 1	!	!	!LO:TX:t=P:problem=kreska pseudotaktowa	!	!	!	!	!	!	!	!
1E	et	Vi	1G	-rat	-um	2rG	.	.	2r	.	.
!	!	!	!	!	!	!	!	!	!LO:TX:t=P:problem=kreska pseudotaktowa	!	!
.	.	.	.	.	.	2G/	.	.	2c/	et	cal-
=28-	=28-	=28-	=28-	=28-	=28-	=28-	=28-	=28-	=28-	=28-	=28-
2D/	Zy-	pro-	1A	et	cal-	2F/	.	.	2d\	Zi-	.
!LO:TX:t=P:problem=kreska pseudotaktowa	!	!	!	!	!	!LO:TX:t=P:problem=kreska pseudotaktowa	!	!	!	!	!
2C/	-ma-	.	.	.	.	2E/	.	.	2e\	-ma-	-cet
!	!	!	!	!	!	!	!	!	!LO:TX:t=P:problem=kreska pseudotaktowa	!	!
1D	-scho-	-pri-	1F	zy-	-cet	2D/	.	.	1f	-scho-	Vi
.	.	.	.	.	.	2A/	.	.	.	.	.
=29-	=29-	=29-	=29-	=29-	=29-	=29-	=29-	=29-	=29-	=29-	=29-
2GG/	-ri-	-a	1B-	-ma-	Vi	1G	.	.	2.d\	.	pro-
!LO:TX:t=P:problem=kreska pseudotaktowa	!	!	!	!	!	!	!	!	!	!	!
2G\	-ae	po-	.	.	.	.	.	.	.	.	.
!	!	!	!	!	!	!	!	!	!LO:TX:t=P:problem=kreska pseudotaktowa	!	!
.	.	.	.	.	.	.	.	.	4e\	.	.
!	!	!	!	!	!	!LO:TX:t=P:problem=kreska pseudotaktowa	!	!	!	!	!
2D/	tol-	.	1A	-ſco-	pro-	1F	et	cal-	2f\	.	.
2F\	-lat	-tens	.	.	.	.	.	.	1d\	.	.
=30-	=30-	=30-	=30-	=30-	=30-	=30-	=30-	=30-	=30-	=30-	=30-
*custos:D	*	*	*	*	*	*	*	*	*	*	*
!LO:TX:t=P:problem=kreska pseudotaktowa	!	!	!	!	!	!	!	!	!	!	!
1E	de	in	1G	-ri-	-pri-	1G	Zi-	-cet	.	.	.
*	*	*	*	*	*	*	*	*	*custos:d	*	*
!	!	!	!	!	!	!	!	!	!LO:TX:t=P:problem=kreska pseudotaktowa	!	!
.	.	.	.	.	.	.	.	.	2c/	.	.
!LO:LB:g=original	!	!	!	!	!	!	!	!	!LO:LB:g=original	!	!
*	*	*	*lig	*	*	*	*	*	*	*	*
1D	.	prae-	1F	-ae	-a	2A/	-ma-	Vi	2d\	.	.
!	!	!	!	!	!	!LO:TX:t=P:problem=kreska pseudotaktowa	!	!	!	!	!
.	.	.	.	.	.	2A/	-scho-	pro-	4c/	.	.
!	!	!	!	!	!	!	!	!	!LO:TX:t=P:problem=kreska pseudotaktowa	!	!
.	.	.	.	.	.	.	.	.	4B-/	.	.
=31-	=31-	=31-	=31-	=31-	=31-	=31-	=31-	=31-	=31-	=31-	=31-
!	!	!	!LO:TX:t=P:problem=kreska pseudotaktowa	!	!	!	!	!	!	!	!
2AA/	.	.	1E	.	.	2A/	-ri-	-pri-	4c/	.	.
.	.	.	.	.	.	.	.	.	4d\	.	.
!	!	!	!	!	!	!	!	!	!LO:TX:t=P::problem=kreska pseudotaktowa&colon;między nutą a kropką	!	!
1C	me-	.	.	.	.	4G/	-ae	-a	2.e\	.	.
!	!	!	!	!	!	!LO:TX:t=P:problem=kreska pseudotaktowa	!	!	!	!	!
.	.	.	.	.	.	4F/	.	.	.	.	.
*	*	*	*Xlig	*	*	*	*	*	*	*	*
.	.	.	1G	tol-	Po-	4E/	.	.	.	.	.
.	.	.	.	.	.	4C/	.	.	4d\	.	.
!LO:TX:t=P:problem=kreska pseudotaktowa	!	!	!	!	!	!LO:TX:t=P:problem=kreska pseudotaktowa	!	!	!	!	!
2BB-/	.	.	.	.	.	2D/	.	.	1d\	.	.
=32-	=32-	=32-	=32-	=32-	=32-	=32-	=32-	=32-	=32-	=32-	=32-
!	!	!	!LO:TX:t=P:problem=kreska pseudotaktowa	!	!	!	!	!	!	!	!
1AA	-di-	-li-	1A	-lat	-tens	1E	tol-	po-	.	.	.
!	!	!	!	!	!	!	!	!	!LO:TX:t=P:problem=kreska pseudotaktowa	!	!
.	.	.	.	.	.	.	.	.	2c/	-ri-	-pri-
!LO:TX:t=P:problem=kreska pseudotaktowa	!	!	!LO:TX:t=P:problem=kreska pseudotaktowa	!	!	!LO:SIC:v:l:s=-lit:verse 1	!	!	!	!	!
1D	-o	-o	1F	de	in	2D/	-lat	-tens	2d\	-ae	-a
!	!	!	!	!	!	!LO:TX:t=P:problem=kreska pseudotaktowa	!	!	!	!	!
.	.	.	.	.	.	2A/	.	.	2.f\	tol-	po-
=33-	=33-	=33-	=33-	=33-	=33-	=33-	=33-	=33-	=33-	=33-	=33-
*	*	*	*lig	*	*	*	*	*	*	*	*
2rC	.	.	1F	me-	prae-	1A	de	in	.	.	.
.	.	.	.	.	.	.	.	.	4e\	.	.
*	*ij	*ij	*	*	*	*	*	*	*	*	*
!LO:TX:t=P:problem=kreska pseudotaktowa	!	!	!	!	!	!	!	!	!	!	!
2D/	tol-	po-	.	.	.	.	.	.	1d	-lit	-tens
!	!	!	!	!	!	!LO:TX:t=P:problem=kreska pseudotaktowa	!	!	!	!	!
2E\	-lat	-tens	1E	.	.	1G	.	.	.	.	.
!LO:TX:t=P:problem=kreska pseudotaktowa	!	!	!	!	!	!	!	!	!LO:TX:t=P:problem=kreska pseudotaktowa	!	!
2G\	de	in	.	.	.	.	.	.	2c/	de	in
*	*	*	*Xlig	*	*	*	*	*	*	*	*
=34-	=34-	=34-	=34-	=34-	=34-	=34-	=34-	=34-	=34-	=34-	=34-
2F\	me-	prae-	1D	.	.	1A	me-	prae-	2d\	me-	prae-
4E\	.	.	.	.	.	.	.	.	2B-/	.	.
!LO:TX:t=P:problem=kreska pseudotaktowa	!	!	!	!	!	!	!	!	!	!	!
4D/	.	.	.	.	.	.	.	.	.	.	.
1C	-di-	-li-	1E	-di-	-li-	2.G/	.	.	1c	-di-	-li-
.	.	.	.	.	.	4G/	-di-	-li-	.	.	.
=35-	=35-	=35-	=35-	=35-	=35-	=35-	=35-	=35-	=35-	=35-	=35-
0FFl;	-o	-o	0Fl;	-o.	-o.	0Al;	-o.	-o.	0cl;;	-o.	-o.
*	*Xij	*Xij	*	*	*	*	*	*	*	*	*
!	!	!	!LO:PB:g=original	!	!	!LO:LB:g=original	!	!	!	!	!
=36||	=36||	=36||	=36||	=36||	=36||	=36||	=36||	=36||	=36||	=36||	=36||
*M2/1	*	*	*M2/1	*	*	*M2/1	*	*	*M2/1	*	*
*met(c|)	*	*	*met(c|)	*	*	*met(c|)	*	*	*met(c|)	*	*
!	!	!	!	!	!	!	!	!	!LO:TX:t=P:problem=kreska pseudotaktowa	!	!
!LO:TX:t=P:problem=przed kluczem inicjały F, E	!	!	!LO:TX:t=P:problem=przed kluczem inicjały F, E	!	!	!LO:TX:t=P:problem=przed kluczem inicjały F, E	!	!	!LO:TX:t=P:problem=przed kluczem inicjały F, E	!	!
1C	Fo-	E-	1C	Fo-	E-	1G	Fo-	E-	1c	Fo-	E-
!	!	!	!LO:TX:t=P:problem=kreska pseudotaktowa	!	!	!	!	!	!	!	!
2GG/	-ras	-xi	1D	-ras	-xi	2G/	-ras	-xi	2B-/	-ras	-xi
!	!	!	!	!	!	!LO:TX:t=P:problem=kreska pseudotaktowa	!	!	!	!	!
1BB-/	e-	qui	.	.	.	2F/	e-	qui	1d\	e-	qui
=37-	=37-	=37-	=37-	=37-	=37-	=37-	=37-	=37-	=37-	=37-	=37-
!	!	!	!	!	!	!LO:SIC:v:l:s=-ji-:verse 1	!	!	!	!	!
.	.	.	1F	e-	qui	2D/	-ij-	mit-	.	.	.
!LO:SIC:v:l:s=-ji-:verse 1	!	!	!	!	!	!	!	!	!	!	!
!LO:TX:t=P:problem=kreska pseudotaktowa	!	!	!	!	!	!	!	!	!LO:SIC:v:l:s=-ji-:verse 1	!	!
2C/	-ij-	mit-	.	.	.	2E/	-ci-	-te-	1c	-ij-	mit-
!	!	!	!LO:SIC:v:l:s=-ji-:verse 1	!	!	!LO:TX:t=P:problem=kreska pseudotaktowa	!	!	!	!	!
1D	-ci-	-te-	1F	-ij-	mit-	1F	-at	-ris	.	.	.
!	!	!	!	!	!	!	!	!	!LO:TX:t=P:problem=kreska pseudotaktowa	!	!
.	.	.	.	.	.	.	.	.	2B-/	-ci-	-te-
=38-	=38-	=38-	=38-	=38-	=38-	=38-	=38-	=38-	=38-	=38-	=38-
!	!	!	!	!	!	!	!	!	!LO:TX:t=P:problem=kreska pseudotaktowa	!	!
2C/	-at	-ris	1E	-ci-	-te-	2.G/	mun-	haec	1c	-at	-ris
1C	mun-	.	.	.	.	.	.	.	.	.	.
.	.	.	.	.	.	4F/	.	.	.	.	.
!	!	!	!LO:TX:t=P:problem=kreska pseudotaktowa	!	!	!	!	!	!	!	!
.	.	.	1G	-at	-ris	2E/	-da-	do-	2r	.	.
!LO:TX:t=P:problem=kreska pseudotaktowa	!	!	!	!	!	!LO:TX:t=P:problem=kreska pseudotaktowa	!	!	!	!	!
2BB-/	-da-	.	.	.	.	2D/	-n(um)	.	2d\	mun-	haec
=39-	=39-	=39-	=39-	=39-	=39-	=39-	=39-	=39-	=39-	=39-	=39-
1C	-n(um)	haec	1E	mun-	haec	2G/	Prin-	-na	2c/	-da-	do-
!	!	!	!	!	!	!	!	!	!LO:TX:t=P:problem=kreska pseudotaktowa	!	!
.	.	.	.	.	.	1c	.	di-	2c/	-n(um)	-na
2.FF/	prin-	do-	1F	-da-	do-	.	.	.	2.A/	Prin-	di-
.	.	.	.	.	.	2c\	-ci-	-ce-	.	.	.
!LO:TX:t=P:problem=kreska pseudotaktowa	!	!	!	!	!	!	!	!	!	!	!
4GG/	.	.	.	.	.	.	.	.	4B-/	.	.
=40-	=40-	=40-	=40-	=40-	=40-	=40-	=40-	=40-	=40-	=40-	=40-
*	*	*	*lig	*	*	*	*	*	*	*	*
!	!	!	!	!	!	!LO:TX:t=P:problem=kreska pseudotaktowa	!	!	!	!	!
4AA/	.	.	1E	-num	-na	1c	-pem	-re	4c/	.	.
*	*	*	*	*	*	*	*	*	*custos:e	*	*
4BB-/	.	.	.	.	.	.	.	.	4d/	.	.
!	!	!	!	!	!	!	!	!	!LO:LB:g=original	!	!
!LO:TX:t=P:problem=kreska pseudotaktowa	!	!	!	!	!	!	!	!	!LO:TX:t=P:problem=kreska pseudotaktowa	!	!
2C/	.	.	.	.	.	.	.	.	2e\	.	.
!	!	!	!LO:TX:t=P:problem=kreska pseudotaktowa	!	!	!	!	!	!	!	!
2C/	-ci-	-na	1D	.	.	2r	.	.	2c/	.	.
2BB-/	-pem	di-	.	.	.	2G/	.	.	2.d\	.	.
*	*	*	*Xlig	*	*	*	*	*	*	*	*
=41-	=41-	=41-	=41-	=41-	=41-	=41-	=41-	=41-	=41-	=41-	=41-
2AA/	.	.	1E	prin-	di-	2A/	.	.	.	.	.
.	.	.	.	.	.	.	.	.	4c/	.	.
*custos:G	*	*	*	*	*	*	*	*	*	*	*
!LO:TX:t=P:problem=kreska pseudotaktowa	!	!	!	!	!	!	!	!	!	!	!
!	!	!	!	!	!	!LO:TX:t=P:problem=kreska pseudotaktowa	!	!	!	!	!
2C/	.	-ce-	.	.	.	2G/	.	.	1c	.	.
!LO:LB:g=original	!	!	!	!	!	!	!	!	!	!	!
1GG	.	-re	1D	-ci-	-ce-	1G	Ma-	re-	.	.	.
!	!	!	!	!	!	!	!	!	!LO:TX:t=P:problem=kreska pseudotaktowa	!	!
.	.	.	.	.	.	.	.	.	2B-/	-ci-	-ce-
=42-	=42-	=42-	=42-	=42-	=42-	=42-	=42-	=42-	=42-	=42-	=42-
!	!	!	!LO:TX:t=P:problem=kreska pseudotaktowa	!	!	!	!	!	!LO:TX:t=P:problem=kreska pseudotaktowa	!	!
1G	Ma-	Re-	1C	-p(em)	-re	2E/	-trem-	-ue-	1c	-pem	-re
!	!	!	!	!	!	!LO:TX:t=P:problem=kreska pseudotaktowa	!	!	!	!	!
.	.	.	.	.	.	2C/	-q(ue)	-la	.	.	.
2E\	-trem-	-ue-	1C	Ma-	Re-	2G/	fa-	Ve-	2r	.	.
!LO:TX:t=P:problem=kreska pseudotaktowa	!	!	!	!	!	!	!	!	!	!	!
2C/	-q(ue)	-la	.	.	.	2E/	-ci-	-te-	2c/	Ma-	Re-
=43-	=43-	=43-	=43-	=43-	=43-	=43-	=43-	=43-	=43-	=43-	=43-
!	!	!	!	!	!	!	!	!	!LO:TX:t=P:problem=kreska pseudotaktowa	!	!
2.F\	fa-	Ve-	1D	-trem-	-ue-	2D/	-at	-ris	1A	-trem-	-ue-
.	.	.	.	.	.	1d	fa-	Ve-	.	.	.
!LO:TX:t=P:problem=kreska pseudotaktowa	!	!	!	!	!	!	!	!	!	!	!
4E\	.	.	.	.	.	.	.	.	.	.	.
!	!	!	!LO:TX:t=P:problem=kreska pseudotaktowa	!	!	!	!	!	!	!	!
4D/	.	.	1F	-q(ue)	-la	.	.	.	2F/	-q(ue)	-la
4C/	.	.	.	.	.	.	.	.	.	.	.
1D\	.	.	.	.	.	4c\	-ci-	.	1f\	fa-	Ve-
!	!	!	!	!	!	!LO:TX:t=P:problem=kreska pseudotaktowa	!	!	!	!	!
.	.	.	.	.	.	4B-\	-at	.	.	.	.
=44-	=44-	=44-	=44-	=44-	=44-	=44-	=44-	=44-	=44-	=44-	=44-
.	.	.	1F	fa-	Ve-	2A/	Se-	.	.	.	.
!LO:TX:t=P:problem=kreska pseudotaktowa	!	!	!	!	!	!	!	!	!	!	!
2D/	-ci-	-te-	.	.	.	2A/	-c(um)	-la-	4e\	.	.
!	!	!	!	!	!	!	!	!	!LO:TX:t=P:problem=kreska pseudotaktowa	!	!
.	.	.	.	.	.	.	.	.	4d\	.	.
2AA/	-at	-ris	1E	-ci-	-te-	2A/	par-	-men	2c/	.	.
2C/	Se-	.	.	.	.	2.G/	-ti-	lit-	2c/	-ci-	-te-
=45-	=45-	=45-	=45-	=45-	=45-	=45-	=45-	=45-	=45-	=45-	=45-
!	!	!	!LO:TX:t=P:problem=kreska pseudotaktowa	!	!	!	!	!	!	!	!
2GG/	-c(um)	.	1G	-at	-ris	.	.	.	2d\	-at	-ris
*	*	*	*	*	*	*custos:E	*	*	*	*	*
.	.	.	.	.	.	4F/	.	.	.	.	.
!	!	!	!	!	!	!LO:LB:g=original	!	!	!	!	!
1C	par-	.	.	.	.	4E/	.	.	1e	Se-	Ve-
!	!	!	!	!	!	!LO:TX:t=P:problem=kreska pseudotaktowa	!	!	!	!	!
.	.	.	.	.	.	4D/	.	.	.	.	.
.	.	.	1G	Se-	Ve-	2C/	.	.	.	.	.
!LO:TX:t=P:problem=kreska pseudotaktowa	!	!	!	!	!	!	!	!	!LO:TX:t=P:problem=kreska pseudotaktowa	!	!
2BB-/	-ti-	.	.	.	.	2D/	.	.	2d\	-cum	-la-
=46-	=46-	=46-	=46-	=46-	=46-	=46-	=46-	=46-	=46-	=46-	=46-
!	!	!	!LO:TX:t=P:problem=kreska pseudotaktowa	!	!	!	!	!	!	!	!
1AA	-ci-	.	1A	-cum	-la-	2E/	.	.	1c	par-	-men
!	!	!	!	!	!	!LO:TX:t=P:problem=kreska pseudotaktowa	!	!	!	!	!
.	.	.	.	.	.	2C/	.	.	.	.	.
2GG/	-pem	.	1B-	par-	-men	1G	-ci-	-te-	2d\	.	.
*	*ij	*	*	*	*	*	*	*	*	*	*
1G\	Se-	Ve-	.	.	.	.	.	.	2.e\	-ti-	.
=47-	=47-	=47-	=47-	=47-	=47-	=47-	=47-	=47-	=47-	=47-	=47-
!	!	!	!	!	!	!LO:TX:t=P:problem=kreska pseudotaktowa	!	!	!	!	!
.	.	.	1A	-ti-	lit-	1D	-p(em)	-rae	.	.	.
.	.	.	.	.	.	.	.	.	4d\	.	.
!LO:TX:t=P:problem=kreska pseudotaktowa	!	!	!	!	!	!	!	!	!	!	!
2F\	-c(um)	-la-	.	.	.	.	.	.	1d	.	.
1E	par-	-men	1G	-ci-	-te-	2r	.	.	.	.	.
!	!	!	!	!	!	!	!	!	!LO:TX:t=P:problem=kreska pseudotaktowa	!	!
.	.	.	.	.	.	2G/	Pa-	Vir-	2c/	-ci-	.
=48-	=48-	=48-	=48-	=48-	=48-	=48-	=48-	=48-	=48-	=48-	=48-
*	*	*	*lig	*	*	*	*	*	*	*	*
2D/	.	lit-	1F	-pem	-rae	2A/	-tris	-tu-	2d\	-pem	.
!	!	!	!	!	!	!LO:TX:t=P:problem=kreska pseudotaktowa	!	!	!	!	!
1D	-ti-	-te-	.	.	.	2F/	im-	-te	2A/	.	lit-
!	!	!	!LO:TX:t=P:problem=kreska pseudotaktowa	!	!	!	!	!	!LO:TX:t=P:problem=♯ below	!	!
!	!	!	!	!	!	!	!	!	!LO:N:acc=#	!	!
.	.	.	1E	.	.	2G/	-pe-	nun-	2Bn/	.	-te-
!LO:TX:t=P:problem=kreska pseudotaktowa	!	!	!	!	!	!	!	!	!LO:TX:t=P:problem=kreska pseudotaktowa	!	!
2C/	.	.	.	.	.	2A/	-rij	-ci-	2c/	.	-rae
!	!	!	!	!	!	!LO:SIC:v:l:s=-ii-:verse 1	!	!	!	!	!
*	*	*	*Xlig	*	*	*	*	*	*	*	*
=49-	=49-	=49-	=49-	=49-	=49-	=49-	=49-	=49-	=49-	=49-	=49-
*	*	*	*	*	*	*	*ij	*	*	*	*
*	*	*	*custos:A	*	*	*	*	*	*	*	*
1BB-	-ci-	.	1G	Pa-	Vir-	2D/	Pa-	-i	1d	.	.
*	*	*	*	*	*	*	*	*ij	*	*	*
!	!	!	!	!	!	!LO:TX:t=P:problem=kreska pseudotaktowa	!	!	!	!	!
.	.	.	.	.	.	2D/	-tris	Vir-	.	.	.
!	!	!	!LO:LB:g=original	!	!	!	!	!	!	!	!
!	!	!	!LO:TX:t=P:problem=kreska pseudotaktowa	!	!	!	!	!	!LO:TX:t=P:problem=kreska pseudotaktowa	!	!
2AA/	-pem	-rae	1A	-tris	-tu-	2E/	im-	-tu-	1c	.	.
*	*Xij	*	*	*	*	*	*	*	*	*	*
!LO:TX:t=P:problem=kreska pseudotaktowa	!	!	!	!	!	!	!	!	!	!	!
2FF/	.	.	.	.	.	2F/	.	-te	.	.	.
=50-	=50-	=50-	=50-	=50-	=50-	=50-	=50-	=50-	=50-	=50-	=50-
2BB-/	Pa-	Vir-	1F	im-	-te	2D/	-pe-	nun-	2r	.	.
!	!	!	!	!	!	!LO:TX:t=P:problem=kreska pseudotaktowa	!	!	!	!	!
2AA/	-tris	-tu-	.	.	.	2C/	.	-ci-	2c/	Pa-	Vir-
*	*	*	*lig	*	*	*	*	*	*	*	*
!	!	!	!	!	!	!LO:SIC:v:l:s=-ii-:verse 1	!	!	!	!	!
2BB-/	im-	-te	1F	-pe-	nun-	1F	-rij	-i	2d\	.	-tu-
!LO:TX:t=P:problem=kreska pseudotaktowa	!	!	!	!	!	!	!	!	!LO:TX:t=P:problem=kreska pseudotaktowa	!	!
2D/	-pe-	nun-	.	.	.	.	.	.	2B-y/	-tris	-te
=51-	=51-	=51-	=51-	=51-	=51-	=51-	=51-	=51-	=51-	=51-	=51-
*	*	*	*	*	*	*	*	*	*lig	*	*
2C/	-ri-	-ci-	1E	.	.	2G/	Pa-	Vir-	1c	im-	nun-
2AA/	.	.	.	.	.	2A/	.	-tu-	.	.	.
*	*	*	*Xlig	*	*	*	*	*	*	*	*
2BB-/	.	.	1D	.	.	2F/	-tris	-te	1d	.	.
2GG/	.	.	.	.	.	1G/	im-	nun-	.	.	.
*	*	*	*	*	*	*	*	*	*Xlig	*	*
=52-	=52-	=52-	=52-	=52-	=52-	=52-	=52-	=52-	=52-	=52-	=52-
!	!	!	!	!	!	!	!	!	!LO:SIC:v:l:s=-ti-:verse 2	!	!
1C	.	.	1E	-ri-	-ci-	.	.	.	1c	-pe-	-ci-
.	.	.	.	.	.	2G/	-pe-	-ci-	.	.	.
!	!	!	!	!	!	!	!	!	!LO:SIC:v:l:s=-ii-:verse 1	!	!
!	!	!	!	!	!	!	!	!	!LO:SIC:v:l:s=-i:verse 2	!	!
!LO:SIC:v:l:s=-i-:verse 1, verse 2	!	!	!LO:SIC:v:l:s=-i-:verse 1	!	!	!LO:SIC:v:l:s=-ii-:verse 1	!	!	!	!	!
1FF;;	-j.	-j.	1Fl;	-j	-i.	1Al;<	-rij.	-i	1cl;;	-rij.	-j.
*	*	*	*	*	*	*	*Xij	*Xij	*	*	*
!LO:LB:g=original	!	!	!	!	!	!LO:LB:g=original	!	!	!LO:PB:g=original	!	!
=53||	=53||	=53||	=53||	=53||	=53||	=53||	=53||	=53||	=53||	=53||	=53||
*M2/1	*	*	*M2/1	*	*	*M2/1	*	*	*M2/1	*	*
*met(c|)	*	*	*met(c|)	*	*	*met(c|)	*	*	*met(c|)	*	*
!LO:TX:t=P:problem=przed kluczem inicjały A, V	!	!	!LO:TX:t=P:problem=przed kluczem inicjały A, V	!	!	!LO:TX:t=P:problem=przed kluczem inicjały A, V	!	!	!LO:TX:t=P:problem=przed kluczem inicjały A, V	!	!
!LO:TX:t=P:problem=kreska pseudotaktowa	!	!	!	!	!	!	!	!	!	!	!
1r	.	.	1F	Ac-	Vir-	1c	Ac-	Vir-	1f	Ac-	Vir-
!	!	!	!	!	!	!	!	!	!LO:TX:t=P:problem=kreska pseudotaktowa	!	!
0C	Ac-	Vir-	1c	-ce-	-go	2c\	-ce-	-go	1e	-ce-	-go
!	!	!	!	!	!	!LO:TX:t=P:problem=kreska pseudotaktowa	!	!	!	!	!
.	.	.	.	.	.	2G/	-de	Su-	.	.	.
=54-	=54-	=54-	=54-	=54-	=54-	=54-	=54-	=54-	=54-	=54-	=54-
!	!	!	!LO:TX:t=P:problem=kreska pseudotaktowa	!	!	!	!	!	!	!	!
.	.	.	1c	-de	Su-	2.G/	nun-	-ſci-	2e\	-de	Su-
.	.	.	.	.	.	.	.	.	1g	.	-Sci-
!	!	!	!	!	!	!LO:TX:t=P:problem=kreska pseudotaktowa	!	!	!	!	!
.	.	.	.	.	.	4A/	.	.	.	.	.
1G	-ce-	-go	1d	nun-	-ſci-	4B-\	.	.	.	.	.
.	.	.	.	.	.	4c\	.	.	.	.	.
.	.	.	.	.	.	1d\	-ci-	-pi-	4f\	nun-	-pi-
!	!	!	!	!	!	!	!	!	!LO:TX:t=P:problem=kreska pseudotaktowa	!	!
.	.	.	.	.	.	.	.	.	4e\	.	.
=55-	=55-	=55-	=55-	=55-	=55-	=55-	=55-	=55-	=55-	=55-	=55-
!LO:TX:t=P:problem=kreska pseudotaktowa	!	!	!	!	!	!	!	!	!	!	!
1G	-de	Su-	1B-	-ci-	-pi-	.	.	.	2d\	.	-as
.	.	.	.	.	.	4c\	.	.	2d\	-ci-	De-
!	!	!	!	!	!	!LO:TX:t=P:problem=kreska pseudotaktowa	!	!	!	!	!
.	.	.	.	.	.	4B-\	.	.	.	.	.
!	!	!	!LO:TX:t=P:problem=kreska pseudotaktowa	!	!	!	!	!	!	!	!
2A\	nun-	-ſci-	1c	-a	-as	2A/	-a	-as	2c/	-a	-i
!	!	!	!	!	!	!	!	!	!LO:TX:t=P:problem=kreska pseudotaktowa	!	!
2F\	-ci-	-pi-	.	.	.	2A/	dic	De-	2f\	dic	de-
=56-	=56-	=56-	=56-	=56-	=56-	=56-	=56-	=56-	=56-	=56-	=56-
1D	-a	-as	1d	dic	De-	2A/	A-	-i	2.f\	A-	-po-
!	!	!	!	!	!	!LO:TX:t=P:problem=kreska pseudotaktowa	!	!	!	!	!
.	.	.	.	.	.	2B-\	-ue	de-	.	.	.
.	.	.	.	.	.	.	.	.	4e\	.	.
!LO:TX:t=P:problem=kreska pseudotaktowa	!	!	!	!	!	!	!	!	!	!	!
1D	dic	De-	1f	A-	-i	1A	co-	-po-	4d\	.	.
.	.	.	.	.	.	.	.	.	4c/	.	.
!	!	!	!	!	!	!	!	!	!LO:TX:t=P:problem=kreska pseudotaktowa	!	!
.	.	.	.	.	.	.	.	.	2d\	.	.
=57-	=57-	=57-	=57-	=57-	=57-	=57-	=57-	=57-	=57-	=57-	=57-
!	!	!	!LO:TX:t=P:problem=kreska pseudotaktowa	!	!	!	!	!	!	!	!
2F\	A-	-i	1c	-ue	de-	2A/	-mi-	-si-	2c/	-ue	.
2C/	-ue	de-	.	.	.	2.G/	.	.	1g	co-	.
1G	co-	-po-	1d	co-	-po-	.	.	.	.	.	.
.	.	.	.	.	.	4A/	.	.	.	.	.
.	.	.	.	.	.	1B-\	.	.	4f\	.	.
!	!	!	!	!	!	!	!	!	!LO:TX:t=P:problem=kreska pseudotaktowa	!	!
.	.	.	.	.	.	.	.	.	4e\	.	.
=58-	=58-	=58-	=58-	=58-	=58-	=58-	=58-	=58-	=58-	=58-	=58-
!LO:TX:t=P:problem=kreska pseudotaktowa	!	!	!	!	!	!	!	!	!	!	!
1G	-mi-	-ſi-	1B-	-mi-	-ſi-	.	.	.	2d\	.	.
!	!	!	!	!	!	!LO:TX:t=P:problem=kreska pseudotaktowa	!	!	!	!	!
.	.	.	.	.	.	2G/	.	.	2d\	-mi-	-si-
!	!	!	!LO:TX:t=P:problem=kreska pseudotaktowa	!	!	!	!	!	!LO:TX:t=P:problem=kreska pseudotaktowa	!	!
2C/	-n(us)	-t(um)	1c	-nus	-tum	1G	-nus	-tum	1e	-nüs	-tum
1C/	dic	in	.	.	.	.	.	.	.	.	.
=59-	=59-	=59-	=59-	=59-	=59-	=59-	=59-	=59-	=59-	=59-	=59-
.	.	.	1d	dic	in	1G	dic	in	2r	.	.
2BB-/	ple-	quo	.	.	.	.	.	.	2d\	Dic	in
2AA/	.	.	1e	ple-	quo	2A/	.	.	2c/	ple-	quo
!LO:TX:t=P:problem=kreska pseudotaktowa	!	!	!	!	!	!LO:TX:t=P:problem=kreska pseudotaktowa	!	!	!LO:TX:t=P:problem=kreska pseudotaktowa	!	!
2GG/	.	.	.	.	.	2B-\	ple-	quo	2B-/	-na	per-
=60-	=60-	=60-	=60-	=60-	=60-	=60-	=60-	=60-	=60-	=60-	=60-
!	!	!	!LO:TX:t=P:problem=kreska pseudotaktowa	!	!	!	!	!	!	!	!
1FF	-na	per-	1f	-na	per-	2.c\	-na	per-	2.A/	gra-	-fi-
.	.	.	.	.	.	4B-\	.	.	4B-/	.	.
*	*	*	*custos:d	*	*	*	*	*	*	*	*
1AA	gra-	-fi-	1e	gra-	-fi-	4A\	.	.	4c/	.	.
.	.	.	.	.	.	4B-\	.	.	4B-/	.	.
!	!	!	!	!	!	!LO:TX:t=P:problem=kreska pseudotaktowa	!	!	!	!	!
.	.	.	.	.	.	2c\	.	.	4A/	.	.
!	!	!	!	!	!	!	!	!	!LO:TX:t=P:problem=kreska pseudotaktowa	!	!
.	.	.	.	.	.	.	.	.	4G/	.	.
!	!	!	!LO:LB:g=original	!	!	!	!	!	!	!	!
=61-	=61-	=61-	=61-	=61-	=61-	=61-	=61-	=61-	=61-	=61-	=61-
!LO:TX:t=P:problem=kreska pseudotaktowa	!	!	!	!	!	!	!	!	!	!	!
1BB-	-ti-	-ci-	1d	-ti-	-ci-	1A	gra-	-fi-	2F/	.	.
.	.	.	.	.	.	.	.	.	1f	.	.
!	!	!	!LO:TX:t=P:problem=kreska pseudotaktowa	!	!	!	!	!	!	!	!
1C	-a	-as	1c	-a	-as	1G	-ti-	-ci	.	.	.
!	!	!	!	!	!	!	!	!	!LO:TX:t=P:problem=kreska pseudotaktowa	!	!
.	.	.	.	.	.	.	.	.	2e\	-ti-	-ci-
=62-	=62-	=62-	=62-	=62-	=62-	=62-	=62-	=62-	=62-	=62-	=62-
2D/	dic	ca-	1A	dic	Ca-	2F/	.	.	2f\	-a	-as
*	*	*	*	*	*	*	*	*	*custos:c	*	*
1F	te-	-stum	.	.	.	1A	-a	as	2c/	Dic	ca-
!	!	!	!	!	!	!	!	!	!LO:LB:g=original	!	!
.	.	.	1c	te-	-ſtum	.	.	.	4c/	te-	-ſtum
.	.	.	.	.	.	.	.	.	4d\	.	.
*	*	*	*	*	*	*custos:A	*	*	*	*	*
!	!	!	!	!	!	!LO:TX:t=P:problem=kreska pseudotaktowa	!	!	!	!	!
!LO:TX:t=P:problem=kreska pseudotaktowa	!	!	!	!	!	!	!	!	!LO:TX:t=P:problem=kreska pseudotaktowa	!	!
2E\	.	pro-	.	.	.	2G/	.	.	2e\	.	.
!	!	!	!	!	!	!LO:PB:g=original	!	!	!	!	!
=63-	=63-	=63-	=63-	=63-	=63-	=63-	=63-	=63-	=63-	=63-	=63-
!	!	!	!LO:TX:t=P:problem=kreska pseudotaktowa	!	!	!	!	!	!	!	!
2D/	-c(um)	-po-	1d	-c(um)	pro-	2A/	.	.	1f	.	.
!	!	!	!	!	!	!LO:TX:t=P:problem=kreska pseudotaktowa	!	!	!	!	!
2BB-/	Do-	.	.	.	.	2B-\	dic	ca-	.	.	.
!LO:TX:t=P:problem=kreska pseudotaktowa	!	!	!	!	!	!	!	!	!LO:TX:t=P:problem=kreska pseudotaktowa	!	!
1C	-mi-	-si-	1c	Do-	-po-	2.G/	te	-ſtum	1e	-cum	pro-
.	.	.	.	.	.	4A/	.	.	.	.	.
=64-	=64-	=64-	=64-	=64-	=64-	=64-	=64-	=64-	=64-	=64-	=64-
*custos:G	*	*	*	*	*	*	*	*	*	*	*
!LO:TX:t=P:problem=kreska pseudotaktowa	!	!	!	!	!	!	!	!	!	!	!
*	*	*	*lig	*	*	*	*	*	*	*	*
1GG	-n(us)	-tum	1B-	.	.	4B-\	.	.	4d\	Do-	-po-
.	.	.	.	.	.	4c\	.	.	4e\	.	.
.	.	.	.	.	.	2.d\	cum	pro-	4f\	.	.
!	!	!	!	!	!	!	!	!	!LO:TX:t=P:problem=kreska pseudotaktowa	!	!
.	.	.	.	.	.	.	.	.	4d\	.	.
!LO:LB:g=original	!	!	!	!	!	!	!	!	!	!	!
!LO:TX:t=P:problem=kreska pseudotaktowa	!	!	!	!	!	!	!	!	!	!	!
1rE	.	.	1A	.	.	.	.	.	2e\	.	.
.	.	.	.	.	.	4c\	.	.	.	.	.
.	.	.	.	.	.	1c\	D(o-	-po-	1f\	.	.
*	*	*	*Xlig	*	*	*	*	*	*	*	*
=65-	=65-	=65-	=65-	=65-	=65-	=65-	=65-	=65-	=65-	=65-	=65-
2rC	.	.	1G	-mi-	-ſi-	.	.	.	.	.	.
!LO:TX:t=P:problem=kreska pseudotaktowa	!	!	!	!	!	!LO:TX:t=P:problem=kreska pseudotaktowa	!	!	!LO:TX:t=P:problem=kreska pseudotaktowa	!	!
2G\	et	et	.	.	.	2B-\	-mi-	-ſi-	2e\	-mi-	-ſi-
!	!	!	!LO:TX:t=P:problem=kreska pseudotaktowa	!	!	!	!	!	!	!	!
2A\	dic	Vo-	1F	-n(us)	-tum	2c\	-nu)s	-tum	2f\	-nus	-tum
1F\	ne	-tum	.	.	.	1A\	et	et	1c\	et	et
=66-	=66-	=66-	=66-	=66-	=66-	=66-	=66-	=66-	=66-	=66-	=66-
.	.	.	1A	et	et	.	.	.	.	.	.
!	!	!	!	!	!	!	!	!	!LO:TX:t=P:problem=kreska pseudotaktowa	!	!
4E\	.	.	.	.	.	4G/	.	.	2d\	dic	Vo-
!LO:TX:t=P:problem=kreska pseudotaktowa	!	!	!	!	!	!LO:TX:t=P:problem=kreska pseudotaktowa	!	!	!	!	!
4D/	.	.	.	.	.	4F/	.	.	.	.	.
!	!	!	!LO:TX:t=P:problem=kreska pseudotaktowa	!	!	!	!	!	!	!	!
2C/	.	te-	1c	dic	Vo-	2G/	.	.	1e	ne	-tum
!LO:TX:t=P:problem=kreska pseudotaktowa	!	!	!	!	!	!	!	!	!	!	!
2AA/	.	.	.	.	.	2A/	dic	Vo-	.	.	.
=67-	=67-	=67-	=67-	=67-	=67-	=67-	=67-	=67-	=67-	=67-	=67-
2BB-/	.	.	1B-	ne	-tum	2F/	ne	-tum	1d	ti-	te-
!	!	!	!	!	!	!LO:TX:t=P:problem=kreska pseudotaktowa	!	!	!	!	!
2GG/	.	.	.	.	.	2G/	.	.	.	.	.
*	*	*	*lig	*	*	*	*	*	*	*	*
2AA/	ti-	.	1A	.	.	2E/	.	te-	1c	-me-	-ne-
!LO:TX:t=P:problem=kreska pseudotaktowa	!	!	!	!	!	!	!	!	!	!	!
2FF/	.	.	.	.	.	1F/	ti-	.	.	.	.
=68-	=68-	=68-	=68-	=68-	=68-	=68-	=68-	=68-	=68-	=68-	=68-
!	!	!	!LO:TX:t=P:problem=kreska pseudotaktowa	!	!	!	!	!	!LO:TX:t=P:problem=kreska pseudotaktowa	!	!
1C	-me-	-ne-	1G	.	.	.	.	.	1c	-as	-as
!	!	!	!	!	!	!LO:TX:t=P:problem=kreska pseudotaktowa	!	!	!	!	!
.	.	.	.	.	.	2E/	.	.	.	.	.
*	*	*	*Xlig	*	*	*	*	*	*	*	*
*	*	*	*lig	*	*	*	*	*	*	*	*
2.FF/	-as	-as.	1F	ti-	te-	4F/	.	.	2r	.	.
.	.	.	.	.	.	4G/	.	.	.	.	.
*	*	*	*	*	*	*	*	*	*	*ij	*ij
!	!	!	!	!	!	!	!	!	!LO:TX:t=P:problem=kreska pseudotaktowa	!	!
.	.	.	.	.	.	4A/	.	.	2c/	et	et
4GG/	.	.	.	.	.	4B-/	.	.	.	.	.
=69-	=69-	=69-	=69-	=69-	=69-	=69-	=69-	=69-	=69-	=69-	=69-
4AA/	.	.	1E	.	.	2c\	.	.	2.c/	dic	Vo-
4BB-/	.	.	.	.	.	.	.	.	.	.	.
1C	.	.	.	.	.	2.G/	.	.	.	.	.
.	.	.	.	.	.	.	.	.	4d\	.	.
*	*	*	*Xlig	*	*	*	*	*	*	*	*
.	.	.	0G	-me-	-ne-	.	.	.	2e\	ne	-tum
.	.	.	.	.	.	4A/	.	.	.	.	.
2BB-/	.	.	.	.	.	2B-\	-me-	-ne-	1f\	ti-	te-
=70-	=70-	=70-	=70-	=70-	=70-	=70-	=70-	=70-	=70-	=70-	=70-
1C	.	.	.	.	.	2G/	.	.	.	.	.
*	*	*	*	*	*	*lig	*	*	*	*	*
!	!	!	!	!	!	!LO:N:vis=0	!	!	!	!	!
.	.	.	.	.	.	2c\	.	.	2e\	-me-	-ne-
0F;<	.	.	0Fl;	-as.	-as.	0Al;	-as.	-as.	0fl;<	-as	-as.
*	*	*	*	*	*	*Xlig	*	*	*	*Xij	*Xij
!	!	!	!	!	!	!LO:LB:g=original	!	!	!LO:LB:g=original	!	!
=71||	=71||	=71||	=71||	=71||	=71||	=71||	=71||	=71||	=71||	=71||	=71||
*M2/1	*	*	*M2/1	*	*	*M2/1	*	*	*M2/1	*	*
*met(c|)	*	*	*met(c|)	*	*	*met(c|)	*	*	*met(c|)	*	*
!LO:TX:t=P:problem=kreska pseudotaktowa	!	!	!	!	!	!	!	!	!LO:TX:t=P:problem=przed kluczem inicjały A, C	!	!
!LO:TX:t=P:problem=przed kluczem inicjały A, C	!	!	!LO:TX:t=P:problem=przed kluczem inicjały A, C	!	!	!LO:TX:t=P:problem=przed kluczem inicjały A, C	!	!	!LO:TX:t=P:problem=kreska pseudotaktowa	!	!
0r	.	.	1A	Au-	Con-	2A/	Au-	Con-	1r	.	.
.	.	.	.	.	.	1c	-dit	-si-	.	.	.
!	!	!	!LO:TX:t=P:problem=kreska pseudotaktowa	!	!	!	!	!	!	!	!
.	.	.	1G	-dit	-ſi-	.	.	.	1d	Au-	Con-
!	!	!	!	!	!	!LO:TX:t=P:problem=kreska pseudotaktowa	!	!	!	!	!
.	.	.	.	.	.	2B-\	.	-li-	.	.	.
=72-	=72-	=72-	=72-	=72-	=72-	=72-	=72-	=72-	=72-	=72-	=72-
!	!	!	!LO:TX:t=P:problem=kreska pseudotaktowa	!	!	!LO:TX:t=P:problem=kreska pseudotaktowa	!	!	!	!	!
1AA	Au-	Con-	1A	et	-li-	1c	.	-a-	1c	-dit	-si-
!LO:TX:t=P:problem=kreska pseudotaktowa	!	!	!	!	!	!	!	!	!	!	!
1GG	-dit	-ſi-	1B-	Su-	-a-	2.G/	et	.	2d\	et	-li-
!	!	!	!	!	!	!	!	!	!LO:TX:t=P:problem=kreska pseudotaktowa	!	!
.	.	.	.	.	.	.	.	.	2B-/	Su-	-a-
.	.	.	.	.	.	4F/	.	.	.	.	.
=73-	=73-	=73-	=73-	=73-	=73-	=73-	=73-	=73-	=73-	=73-	=73-
2AA/	et	-li-	1A	-ſci-	-ri-	4E/	.	.	1c	-ſci-	-ri-
.	.	.	.	.	.	4D/	.	.	.	.	.
2C/	Su-	-a-	.	.	.	1E	ſu-	.	.	.	.
*	*	*	*custos:A	*	*	*	*	*	*	*	*
!	!	!	!LO:TX:t=P:problem=kreska pseudotaktowa	!	!	!	!	!	!	!	!
!LO:TX:t=P:problem=kreska pseudotaktowa	!	!	!	!	!	!	!	!	!	!	!
1BB-	-ſci-	-ri-	1G	-pit	-um	.	.	.	2d\	-pit	-um
!	!	!	!	!	!	!LO:TX:t=P:problem=kreska pseudotaktowa	!	!	!LO:TX:t=P:problem=kreska pseudotaktowa	!	!
.	.	.	.	.	.	2D/	.	-ri-	2B-/	Pu-	hu-
!	!	!	!LO:LB:g=original	!	!	!	!	!	!	!	!
=74-	=74-	=74-	=74-	=74-	=74-	=74-	=74-	=74-	=74-	=74-	=74-
2AA/	-pit	-um	1A	Pu-	hu-	2E/	-ſci-	-um	2.c/	-el-	-ma-
!LO:TX:t=P:problem=kreska pseudotaktowa	!	!	!	!	!	!	!	!	!	!	!
2AA/	Pu-	hu-	.	.	.	2E/	-pit	hu-	.	.	.
.	.	.	.	.	.	.	.	.	4B-/	.	.
!LO:TX:t=P:problem=kreska pseudotaktowa	!	!	!	!	!	!	!	!	!	!	!
1D	-el-	-ma-	1F	-el-	-ma-	4F/	pu-	.	4A/	.	-ni
.	.	.	.	.	.	4G/	.	.	4F/	.	.
!	!	!	!	!	!	!	!	!	!LO:TX:t=P::problem=kreska pseudotaktowa&colon;między nutą a kropką	!	!
.	.	.	.	.	.	4A/	.	.	2.f\	.	ge-
!	!	!	!	!	!	!LO:TX:t=P:problem=kreska pseudotaktowa	!	!	!	!	!
.	.	.	.	.	.	4B-\	.	.	.	.	.
=75-	=75-	=75-	=75-	=75-	=75-	=75-	=75-	=75-	=75-	=75-	=75-
!	!	!	!LO:TX:t=P:problem=kreska pseudotaktowa	!	!	!	!	!	!	!	!
2.C/	-la	.	1G	-la	-ni	1c	-el-	-ma-	.	.	.
.	.	.	.	.	.	.	.	.	4e\	.	.
.	.	.	.	.	.	.	.	.	2.e\	-la	.
!LO:TX:t=P:problem=kreska pseudotaktowa	!	!	!	!	!	!	!	!	!	!	!
4BB-/	.	.	.	.	.	.	.	.	.	.	.
*	*	*	*lig	*	*	*	*	*	*	*	*
2AA/	.	.	1F	nun-	ge-	2c\	-la	-ni	.	.	.
.	.	.	.	.	.	.	.	.	4d\	.	.
2BB-/	.	-ni	.	.	.	2.B-\	nun-	ge-	1d\	nun-	.
=76-	=76-	=76-	=76-	=76-	=76-	=76-	=76-	=76-	=76-	=76-	=76-
2GG/	nun-	ge-	1E	.	.	.	.	.	.	.	.
.	.	.	.	.	.	4A/	.	.	.	.	.
!	!	!	!	!	!	!	!	!	!LO:TX:t=P:problem=kreska pseudotaktowa	!	!
2AA/	.	.	.	.	.	1A	.	.	2c/	.	.
*	*	*	*Xlig	*	*	*	*	*	*	*	*
1BB-	-ci-	-ne-	1D	.	.	.	.	.	1d	.	.
!	!	!	!	!	!	!LO:TX:t=P:problem=kreska pseudotaktowa	!	!	!	!	!
.	.	.	.	.	.	2G/	-ci-	-ne-	.	.	.
=77-	=77-	=77-	=77-	=77-	=77-	=77-	=77-	=77-	=77-	=77-	=77-
*custos:A	*	*	*	*	*	*	*	*	*	*	*
!LO:TX:t=P:problem=kreska pseudotaktowa	!	!	!	!	!	!	!	!	!	!	!
1AA	-um	-ris	1E	-ci-	-ne-	1A	-um	-ris	1c	-ci-	-ne-
!LO:PB:g=original	!	!	!LO:TX:t=P:problem=kreska pseudotaktowa	!	!	!	!	!	!LO:TX:t=P:problem=kreska pseudotaktowa	!	!
2r	.	.	1F	-um	-ris	1A	cre-	et	1c	-um	-ris
!LO:TX:t=P:problem=kreska pseudotaktowa	!	!	!	!	!	!	!	!	!	!	!
2A\	cre-	et	.	.	.	.	.	.	.	.	.
=78-	=78-	=78-	=78-	=78-	=78-	=78-	=78-	=78-	=78-	=78-	=78-
!	!	!	!	!	!	!	!	!	!LO:TX:t=P:problem=kreska pseudotaktowa	!	!
2F\	-dit	De-	1A	cre-	et	2.c\	-dit	De-	1r	.	.
1F	et	-um	.	.	.	.	.	.	.	.	.
!	!	!	!	!	!	!LO:TX:t=P:problem=kreska pseudotaktowa	!	!	!	!	!
.	.	.	.	.	.	4B-\	.	.	.	.	.
!	!	!	!LO:TX:t=P:problem=kreska pseudotaktowa	!	!	!	!	!	!	!	!
.	.	.	1c	-dit	De-	2A/	.	.	2r	.	.
!LO:TX:t=P:problem=kreska pseudotaktowa	!	!	!	!	!	!	!	!	!LO:TX:t=P::problem=kreska pseudotaktowa&colon;między nutą a kropką	!	!
2E\	con-	for-	.	.	.	2G/	et	-um	2.g\	Cre-	Et
=79-	=79-	=79-	=79-	=79-	=79-	=79-	=79-	=79-	=79-	=79-	=79-
2D/	-ci-	-ti-	1d	et	-um	2A/	con-	for-	.	.	.
.	.	.	.	.	.	.	.	.	4f\	.	.
!LO:TX:t=P:problem=kreska pseudotaktowa	!	!	!	!	!	!	!	!	!	!	!
2BB-/	-pit	-(um)	.	.	.	2.B-\	-ci-	.	1f	-dit	De-
2r	.	.	1c	con-	for-	.	.	.	.	.	.
.	.	.	.	.	.	4A/	.	.	.	.	.
!	!	!	!	!	!	!	!	!	!LO:TX:t=P:problem=kreska pseudotaktowa	!	!
2C/	et	et	.	.	.	1A\	-pit	.	2e\	et	-um
=80-	=80-	=80-	=80-	=80-	=80-	=80-	=80-	=80-	=80-	=80-	=80-
2D/	.	.	1B-	-ci-	-ti-	.	.	.	2f\	con-	for-
!LO:TX:t=P:problem=kreska pseudotaktowa	!	!	!	!	!	!LO:TX:t=P:problem=kreska pseudotaktowa	!	!	!LO:TX:t=P:problem=kreska pseudotaktowa	!	!
2E\	pa-	Pa-	.	.	.	2G/	.	-ti-	2e\	-ci-	-ti-
!	!	!	!LO:TX:t=P:problem=kreska pseudotaktowa	!	!	!	!	!	!	!	!
2F\	.	.	1A	-pit	-um	2A/	.	-um	2c/	-pit	-um
*	*	*	*	*	*	*custos:c	*	*	*	*	*
2FF/	.	.	.	.	.	2c\	et	et	1f\	et	et
!	!	!	!	!	!	!LO:LB:g=original	!	!	!	!	!
=81-	=81-	=81-	=81-	=81-	=81-	=81-	=81-	=81-	=81-	=81-	=81-
!	!	!	!LO:TX:t=P:problem=kreska pseudotaktowa	!	!	!	!	!	!	!	!
1C	-rit	.	1G	et	et	2.c\	pa-	Pa-	.	.	.
*	*	*	*	*	*	*	*	*	*2\left	*	*
!	!	!	!	!	!	!	!	!	!LO:TX:t=P:problem=kreska pseudotaktowa	!	!
.	.	.	.	.	.	.	.	.	2e\	pa-	Pa-
.	.	.	.	.	.	4B-\	.	.	.	.	.
*	*	*	*	*	*	*	*	*	*custos:c	*	*
!	!	!	!	!	!	!	!	!	!LO:TX:t=P:problem=kreska pseudotaktowa	!	!
!LO:TX:t=P:problem=kreska pseudotaktowa	!	!	!	!	!	!	!	!	!	!	!
1FF	.	-trem	1A	pa-	Pa-	4A/	.	.	1f	-rit	-trem
.	.	.	.	.	.	4G/	.	.	.	.	.
.	.	.	.	.	.	1F/	-rit	-trem	.	.	.
!	!	!	!	!	!	!	!	!	!LO:LB:g=original	!	!
=82-	=82-	=82-	=82-	=82-	=82-	=82-	=82-	=82-	=82-	=82-	=82-
!	!	!	!LO:TX:t=P:problem=kreska pseudotaktowa	!	!	!	!	!	!	!	!
2rC	.	.	1G	-rit	-trem	.	.	.	2.c/	Fi-	po-
!LO:TX:t=P:problem=kreska pseudotaktowa	!	!	!	!	!	!LO:TX:t=P:problem=kreska pseudotaktowa	!	!	!	!	!
2C/	fi-	et	.	.	.	2E/	Fi-	po-	.	.	.
!	!	!	!	!	!	!	!	!	!LO:TX:t=P:problem=kreska pseudotaktowa	!	!
.	.	.	.	.	.	.	.	.	4B-/	.	.
2D/	.	.	1F	Fi-	po-	2F/	.	.	2A/	.	.
!	!	!	!	!	!	!	!	!	!LO:TX:t=P:problem=kreska pseudotaktowa	!	!
1F\	-li-	Pa-	.	.	.	2D/	-li-	-ſte-	2B-/	.	.
=83-	=83-	=83-	=83-	=83-	=83-	=83-	=83-	=83-	=83-	=83-	=83-
!	!	!	!	!	!	!LO:TX:t=P:problem=kreska pseudotaktowa	!	!	!	!	!
.	.	.	1G	-li-	-ſte-	1C	-um	-ris	2G/	.	.
*	*	*	*	*	*	*	*	*	*2\right	*	*
!LO:TX:t=P:problem=kreska pseudotaktowa	!	!	!	!	!	!	!	!	!	!	!
2E\	-um	.	.	.	.	.	.	.	2.g\	.	.
*	*	*	*lig	*	*	*	*	*	*	*	*
!	!	!	!	!	!	!LO:TX:t=P:problem=kreska pseudotaktowa	!	!	!	!	!
2F\	.	-tr(em)	1A	-um	-ris	0r	.	.	.	.	.
.	.	.	.	.	.	.	.	.	4f\	.	.
2A\	.	po-	.	.	.	.	.	.	1f\	.	.
=84-	=84-	=84-	=84-	=84-	=84-	=84-	=84-	=84-	=84-	=84-	=84-
1G	.	-ſte-	1B-	.	.	.	.	.	.	.	.
!	!	!	!	!	!	!	!	!	!LO:TX:t=P:problem=kreska pseudotaktowa	!	!
.	.	.	.	.	.	.	.	.	2e\	-li-	-ſte-
*	*	*	*Xlig	*	*	*	*	*	*	*	*
!	!	!	!LO:TX:t=P:problem=kreska pseudotaktowa	!	!	!	!	!	!	!	!
2F\	.	-ris	1A,	.	.	1c	Sed	in	2f\	-um,	-ris
!LO:TX:t=P:problem=kreska pseudotaktowa	!	!	!	!	!	!	!	!	!	!	!
2F\	Sed	in	.	.	.	.	.	.	1f\	Sed	in
=85-	=85-	=85-	=85-	=85-	=85-	=85-	=85-	=85-	=85-	=85-	=85-
*	*	*	*lig	*	*	*	*	*	*	*	*
2F\	ad-	fi-	1c	Sed	in	2A/	ad-	fi-	.	.	.
!	!	!	!	!	!	!LO:TX:t=P:problem=kreska pseudotaktowa	!	!	!LO:TX:t=P:problem=kreska pseudotaktowa	!	!
2F\	-mi-	-de	.	.	.	2A/	-mi-	-de	2f\	ad-	fi-
2.BB-/	-ra-	Sta-	1d	.	.	2.B-\	-ra-	ſta-	2f\	-mi-	-de
.	.	.	.	.	.	.	.	.	1f\	-ra-	ſta
!LO:TX:t=P:problem=kreska pseudotaktowa	!	!	!	!	!	!	!	!	!	!	!
4BB-/	-bi-	-bi-	.	.	.	4B-\	-bi-	-bi-	.	.	.
*	*	*	*Xlig	*	*	*	*	*	*	*	*
=86-	=86-	=86-	=86-	=86-	=86-	=86-	=86-	=86-	=86-	=86-	=86-
!	!	!	!LO:TX:t=P:problem=kreska pseudotaktowa	!	!	!LO:TX:t=P:problem=kreska pseudotaktowa	!	!	!	!	!
2F\	-lem	-lem	1c	.	.	1A	-lem	-lem	.	.	.
*	*ij	*	*	*	*	*	*	*	*	*	*
!	!	!	!	!	!	!	!	!	!LO:TX:t=P:problem=kreska pseudotaktowa	!	!
2F\	Sed	.	.	.	.	.	.	.	2f\	-bi-	bi-
*	*	*	*custos:G	*	*	*	*	*	*	*	*
!	!	!	!	!	!	!	!	!	!LO:TX:t=P:problem=kreska pseudotaktowa	!	!
2D\	ad-	.	1F	ad-	fi-	2r	.	.	1f	-lem	-lem
*	*	*	*	*	*	*	*ij	*ij	*	*	*
1F\	-mi-	.	.	.	.	2c\	Sed	in	.	.	.
!	!	!	!LO:LB:g=original	!	!	!	!	!	!	!	!
=87-	=87-	=87-	=87-	=87-	=87-	=87-	=87-	=87-	=87-	=87-	=87-
*	*	*	*lig	*	*	*	*	*	*	*	*
.	.	.	1G	-mi	-de	2d\	ad-	fi-	2r	.	.
!LO:TX:t=P:problem=kreska pseudotaktowa	!	!	!	!	!	!	!	!	!	!	!
*	*	*	*	*	*	*	*	*	*	*ij	*ij
*custos:D	*	*	*	*	*	*	*	*	*	*	*
!	!	!	!	!	!	!LO:TX:t=P:problem=kreska pseudotaktowa	!	!	!LO:TX:t=P:problem=kreska pseudotaktowa	!	!
2E\	.	.	.	.	.	2e\	.	.	2c/	Sed	in
!LO:LB:g=original	!	!	!	!	!	!	!	!	!	!	!
2D/	-ra-	.	1A	.	.	2f\	.	.	2d\	ad-	fi-
!LO:TX:t=P:problem=kreska pseudotaktowa	!	!	!	!	!	!	!	!	!LO:TX:t=P:problem=kreska pseudotaktowa	!	!
2C/	.	.	.	.	.	2c\	.	.	2e\	-mi-	-de
*	*	*	*Xlig	*	*	*	*	*	*	*	*
=88-	=88-	=88-	=88-	=88-	=88-	=88-	=88-	=88-	=88-	=88-	=88-
*	*	*	*lig	*	*	*	*	*	*	*	*
2BB-/	.	.	1B-	ra-	Sta-	2d\	.	.	2d\	-ra-	ſta-
!	!	!	!	!	!	!LO:TX:t=P:problem=kreska pseudotaktowa	!	!	!	!	!
2GG/	.	.	.	.	.	2d\	-mi-	-de	2.g\	.	.
2AA/	.	.	1A	.	.	1.c	.	.	.	.	.
.	.	.	.	.	.	.	.	.	4f\	.	.
!LO:TX:t=P:problem=kreska pseudotaktowa	!	!	!	!	!	!	!	!	!	!	!
2FF/	.	.	.	.	.	.	.	.	1f\	.	.
*	*	*	*Xlig	*	*	*	*	*	*	*	*
=89-	=89-	=89-	=89-	=89-	=89-	=89-	=89-	=89-	=89-	=89-	=89-
*	*	*	*lig	*	*	*	*	*	*	*	*
2.C/	.	.	1G	-bi-	-bi-	.	.	.	.	.	.
.	.	.	.	.	.	2c\	-ra-	ſta-	2c/	.	.
4BB-/	.	.	.	.	.	.	.	.	.	.	.
2AA/	.	.	1F	.	.	1A	-bi-	-bi-	1c	-bi-	-bi-
2BB-/	-bi-	.	.	.	.	.	.	.	.	.	.
*	*	*	*Xlig	*	*	*	*	*	*	*	*
=90-	=90-	=90-	=90-	=90-	=90-	=90-	=90-	=90-	=90-	=90-	=90-
0FF;	-lem.	.	0Fl;	-lem.	-lem.	0Al;<	-lem	-lem	0cl;	-lem	-lem
*	*Xij	*	*	*	*	*	*Xij	*Xij	*	*Xij	*Xij
!	!	!	!	!	!	!LO:LB:g=original	!	!	!LO:LB:g=original	!	!
=91||	=91||	=91||	=91||	=91||	=91||	=91||	=91||	=91||	=91||	=91||	=91||
*M2/1	*	*	*M2/1	*	*	*M2/1	*	*	*M2/1	*	*
*met(c|)	*	*	*met(c|)	*	*	*met(c|)	*	*	*met(c|)	*	*
!	!	!	!LO:TX:t=P:problem=kreska pseudotaktowa	!	!	!LO:TX:t=P:problem=przed kluczem inicjał Q	!	!	!	!	!
!LO:TX:t=P:problem=przed kluczem inicjał Q	!	!	!LO:TX:t=P:problem=przed kluczem inicjał Q	!	!	!LO:TX:t=P:problem=kreska pseudotaktowa	!	!	!LO:TX:t=P:problem=przed kluczem inicjał Q	!	!
2.AA/	QVi	.	1A	Qui	.	0r	.	.	4A/	Qui	.
.	.	.	.	.	.	.	.	.	4B-/	.	.
.	.	.	.	.	.	.	.	.	4c/	.	.
!	!	!	!	!	!	!	!	!	!LO:TX:t=P:problem=kreska pseudotaktowa	!	!
4BB-/	.	.	.	.	.	.	.	.	4d/	.	.
2C/	no-	.	1G	no-	.	.	.	.	2e\	.	.
!LO:TX:t=P:problem=kreska pseudotaktowa	!	!	!	!	!	!	!	!	!LO:TX:t=P:problem=kreska pseudotaktowa	!	!
2BB-/	-bis	.	.	.	.	.	.	.	2d\	no-	.
=92-	=92-	=92-	=92-	=92-	=92-	=92-	=92-	=92-	=92-	=92-	=92-
!	!	!	!LO:TX:t=P:problem=kreska pseudotaktowa	!	!	!	!	!	!	!	!
2AA/	tri-	.	1A	-bis	.	1A	Qui	.	2c/	-bis	.
2FF/	.	.	.	.	.	.	.	.	1f	tri-	.
!LO:TX:t=P:problem=kreska pseudotaktowa	!	!	!	!	!	!	!	!	!	!	!
1GG	-bu-	.	1B-	tri-	.	1G	.	.	.	.	.
!	!	!	!	!	!	!	!	!	!LO:TX:t=P:problem=kreska pseudotaktowa	!	!
.	.	.	.	.	.	.	.	.	2e\	-bu-	.
=93-	=93-	=93-	=93-	=93-	=93-	=93-	=93-	=93-	=93-	=93-	=93-
2FF/	-at	.	1A	-bu-	.	2A/	no-	.	2f\	-at	.
!	!	!	!	!	!	!LO:TX:t=P:problem=kreska pseudotaktowa	!	!	!LO:TX:t=P:problem=kreska pseudotaktowa	!	!
1F	pec-	.	.	.	.	2F/	-bis	.	2c/	pec-	.
!	!	!	!LO:TX:t=P:problem=kreska pseudotaktowa	!	!	!	!	!	!	!	!
.	.	.	1G	-at	.	2G/	tri-	.	2d\	-ca-	.
!LO:TX:t=P:problem=kreska pseudotaktowa	!	!	!	!	!	!	!	!	!LO:TX:t=P:problem=kreska pseudotaktowa	!	!
2E\	.	.	.	.	.	2C/	-bu-	.	2e\	.	.
=94-	=94-	=94-	=94-	=94-	=94-	=94-	=94-	=94-	=94-	=94-	=94-
2D/	-ca-	.	1A	pec-	.	2F/	-at	.	2f\	-ti	.
2C/	-ti	.	.	.	.	1A	pec-	.	2.e\	Ve-	.
!LO:TX:t=P:problem=kreska pseudotaktowa	!	!	!	!	!	!	!	!	!	!	!
1D	Ve-	.	1F	-ca-	.	.	.	.	.	.	.
.	.	.	.	.	.	.	.	.	4d\	.	.
.	.	.	.	.	.	4G/	-ca-	.	1d\	.	.
!	!	!	!	!	!	!LO:TX:t=P:problem=kreska pseudotaktowa	!	!	!	!	!
.	.	.	.	.	.	4F/	.	.	.	.	.
=95-	=95-	=95-	=95-	=95-	=95-	=95-	=95-	=95-	=95-	=95-	=95-
!	!	!	!LO:TX:t=P:problem=kreska pseudotaktowa	!	!	!	!	!	!	!	!
1E	-ni-	.	1G	-ti	.	4E/	.	.	.	.	.
.	.	.	.	.	.	4F/	.	.	.	.	.
!	!	!	!	!	!	!LO:TX:t=P:problem=kreska pseudotaktowa	!	!	!LO:TX:t=P:problem=kreska pseudotaktowa	!	!
.	.	.	.	.	.	2G/	.	.	2c/	-ni-	.
*	*	*	*lig	*	*	*	*	*	*	*	*
2D/	-am	.	1F	Ve-	.	2A/	-ti	.	2d\	-am	.
*	*ij	*	*	*	*	*	*	*	*	*	*
1D/	pec-	.	.	.	.	2.A/	Ve-	.	2d\	pec-	.
=96-	=96-	=96-	=96-	=96-	=96-	=96-	=96-	=96-	=96-	=96-	=96-
.	.	.	1E	.	.	.	.	.	2e\	-ca-	.
.	.	.	.	.	.	4B-\	.	.	.	.	.
!LO:TX:t=P:problem=kreska pseudotaktowa	!	!	!	!	!	!LO:TX:t=P:problem=kreska pseudotaktowa	!	!	!LO:TX:t=P:problem=kreska pseudotaktowa	!	!
2D/	-ca-	.	.	.	.	2c\	-ni-	.	2e\	-ti	.
*	*	*	*Xlig	*	*	*	*	*	*	*	*
2BB-/	-ti	.	1D	.	.	2d\	.	.	2f\	Ve-	.
2GG/	Ve-	.	.	.	.	1G/	-am	.	2g\	-ni-	.
=97-	=97-	=97-	=97-	=97-	=97-	=97-	=97-	=97-	=97-	=97-	=97-
!LO:TX:t=P:problem=kreska pseudotaktowa	!	!	!	!	!	!	!	!	!LO:TX:t=P:problem=kreska pseudotaktowa	!	!
1C	-ni-	.	1E	-ni-	.	.	.	.	1c	-am	.
!	!	!	!	!	!	!LO:TX:t=P:problem=kreska pseudotaktowa	!	!	!	!	!
.	.	.	.	.	.	2c\	Re-	.	.	.	.
*custos:F	*	*	*	*	*	*	*	*	*	*	*
!	!	!	!LO:TX:t=P:problem=kreska pseudotaktowa	!	!	!	!	!	!	!	!
1FF	-am	.	0F	-(am)	.	2A/	-a-	.	2r	.	.
*	*Xij	*	*	*	*	*	*	*	*	*	*
!	!	!	!	!	!	!	!	!	!LO:TX:t=P:problem=kreska pseudotaktowa	!	!
.	.	.	.	.	.	4c\	-tus	.	2f\	Re-	.
!	!	!	!	!	!	!LO:TX:t=P:problem=kreska pseudotaktowa	!	!	!	!	!
.	.	.	.	.	.	4B-\	.	.	.	.	.
!LO:LB:g=original	!	!	!	!	!	!	!	!	!	!	!
=98-	=98-	=98-	=98-	=98-	=98-	=98-	=98-	=98-	=98-	=98-	=98-
2r	.	.	.	.	.	4A/	di-	.	2d\	-a-	.
.	.	.	.	.	.	4G/	.	.	.	.	.
!LO:TX:t=P:problem=kreska pseudotaktowa	!	!	!	!	!	!	!	!	!	!	!
2F\	re-	.	.	.	.	2A/	.	.	1f	-tus	.
2D/	-a-	.	1F	re-	.	2F/	.	.	.	.	.
1F\	-tus	.	.	.	.	1A\	.	.	4e\	.	.
!	!	!	!	!	!	!	!	!	!LO:TX:t=P:problem=kreska pseudotaktowa	!	!
.	.	.	.	.	.	.	.	.	4d\	.	.
=99-	=99-	=99-	=99-	=99-	=99-	=99-	=99-	=99-	=99-	=99-	=99-
.	.	.	1c	-a-	.	.	.	.	4c\	.	.
.	.	.	.	.	.	.	.	.	4d\	.	.
4E\	.	.	.	.	.	4G/	.	.	4e\	.	.
!LO:TX:t=P:problem=kreska pseudotaktowa	!	!	!	!	!	!LO:TX:t=P:problem=kreska pseudotaktowa	!	!	!LO:TX:t=P:problem=kreska pseudotaktowa	!	!
4D/	.	.	.	.	.	4F/	.	.	4f\	.	.
!	!	!	!LO:TX:t=P:problem=kreska pseudotaktowa	!	!	!	!	!	!	!	!
2C/	.	.	1c	-tus	.	4E/	.	.	2g\	.	.
.	.	.	.	.	.	4F/	.	.	.	.	.
2C/	di-	.	.	.	.	4G/	.	.	1g\	di-	.
*	*	*	*	*	*	*custos:b	*	*	*	*	*
!	!	!	!	!	!	!LO:TX:t=P:problem=kreska pseudotaktowa	!	!	!	!	!
.	.	.	.	.	.	4A/	.	.	.	.	.
!	!	!	!	!	!	!LO:LB:g=original	!	!	!	!	!
=100-	=100-	=100-	=100-	=100-	=100-	=100-	=100-	=100-	=100-	=100-	=100-
*	*	*	*custos:B	*	*	*	*	*	*	*	*
!	!	!	!LO:TX:b:t=luat	!	!	!	!	!	!	!	!
2.GG/	.	.	1d	di-	.	2B-\	.	.	.	.	.
.	.	.	.	.	.	4A/	.	.	4f\	.	.
!LO:TX:t=P:problem=kreska pseudotaktowa	!	!	!	!	!	!	!	!	!LO:TX:t=P:problem=kreska pseudotaktowa	!	!
4AA/	.	.	.	.	.	4G/	.	.	4e\	.	.
!	!	!	!LO:PB:g=original	!	!	!	!	!	!	!	!
1BB-	-lu-	.	1B-	-lu-	.	2.F/	-lu-	.	2.d\	-lu-	.
*	*	*	*	*	*	*	*	*	*custos:f	*	*
!	!	!	!	!	!	!	!	!	!LO:TX:t=P:problem=kreska pseudotaktowa	!	!
!	!	!	!	!	!	!	!	!	!LO:TX:b:t=-at	!	!
.	.	.	.	.	.	4G/	.	.	4e\	.	.
!	!	!	!	!	!	!	!	!	!LO:PB:g=original	!	!
=101-	=101-	=101-	=101-	=101-	=101-	=101-	=101-	=101-	=101-	=101-	=101-
!	!	!	!LO:TX:t=P:problem=kreska pseudotaktowa	!	!	!LO:TX:t=P:problem=kreska pseudotaktowa	!	!	!	!	!
2FF/	-at	.	1c	-at	.	1A	-at	.	2f\	-at	.
!LO:TX:t=P:problem=kreska pseudotaktowa	!	!	!	!	!	!	!	!	!LO:TX:t=P:problem=kreska pseudotaktowa	!	!
2FF/	et	.	.	.	.	.	.	.	2f\	et	.
1BB-	do-	.	1F	et	.	2r	.	.	2d\	do-	.
!	!	!	!	!	!	!	!	!	!LO:TX:t=P:problem=kreska pseudotaktowa	!	!
.	.	.	.	.	.	2F/	et	.	2d\	-net	.
=102-	=102-	=102-	=102-	=102-	=102-	=102-	=102-	=102-	=102-	=102-	=102-
2GG/	-net	.	1G	do-	.	2B-\	do-	.	4g\	Pa-	.
.	.	.	.	.	.	.	.	.	4f\	.	.
!	!	!	!	!	!	!LO:TX:t=P:problem=kreska pseudotaktowa	!	!	!	!	!
4C/	.	.	.	.	.	2G/	-net	.	4e\	.	.
!LO:TX:t=P:problem=kreska pseudotaktowa	!	!	!	!	!	!	!	!	!LO:TX:t=P:problem=kreska pseudotaktowa	!	!
4BB-/	.	.	.	.	.	.	.	.	4d\	.	.
*	*	*	*lig	*	*	*	*	*	*	*	*
4AA/	.	.	1A	-net	.	4c\	Pa-	.	2c/	.	.
4GG/	.	.	.	.	.	4B-\	.	.	.	.	.
2FF/	Pa-	.	.	.	.	4A/	.	.	1f\	.	.
.	.	.	.	.	.	4G/	.	.	.	.	.
=103-	=103-	=103-	=103-	=103-	=103-	=103-	=103-	=103-	=103-	=103-	=103-
!LO:TX:t=P:problem=kreska pseudotaktowa	!	!	!LO:TX:t=P:problem=kreska pseudotaktowa	!	!	!	!	!	!	!	!
1BB-	-tri-	.	1B-	.	.	2F/	.	.	.	.	.
.	.	.	.	.	.	2F/	-tri-	.	4e\	.	.
!	!	!	!	!	!	!	!	!	!LO:TX:t=P:problem=kreska pseudotaktowa	!	!
.	.	.	.	.	.	.	.	.	4d\	.	.
*	*	*	*Xlig	*	*	*	*	*	*	*	*
!	!	!	!	!	!	!LO:TX:t=P:problem=kreska pseudotaktowa	!	!	!	!	!
2AA/	-(am)	.	1c	Pa-	.	1A	-am	.	2.e\	.	.
*	*ij	*	*	*	*	*	*	*	*	*	*
1A\	et	.	.	.	.	.	.	.	.	.	.
.	.	.	.	.	.	.	.	.	8d\L	.	.
!	!	!	!	!	!	!	!	!	!LO:TX:t=P:problem=kreska pseudotaktowa	!	!
.	.	.	.	.	.	.	.	.	8e\J	.	.
=104-	=104-	=104-	=104-	=104-	=104-	=104-	=104-	=104-	=104-	=104-	=104-
*	*	*	*lig	*	*	*	*	*	*	*	*
.	.	.	1B-	.	.	0r	.	.	2f\	.	.
!LO:TX:t=P:problem=kreska pseudotaktowa	!	!	!	!	!	!	!	!	!	!	!
2G\	do-	.	.	.	.	.	.	.	2.e\	.	.
2F\	-net	.	1A	.	.	.	.	.	.	.	.
.	.	.	.	.	.	.	.	.	4d\	.	.
2D/	Pa-	.	.	.	.	.	.	.	1d\	.	.
*	*	*	*Xlig	*	*	*	*	*	*	*	*
=105-	=105-	=105-	=105-	=105-	=105-	=105-	=105-	=105-	=105-	=105-	=105-
1E	-tri-	.	1G	-tri-	.	2r	.	.	.	.	.
!	!	!	!	!	!	!LO:TX:t=P:problem=kreska pseudotaktowa	!	!	!LO:TX:t=P:problem=kreska pseudotaktowa	!	!
.	.	.	.	.	.	2c\	in	.	2c/	-tri-	.
!LO:TX:t=P:problem=kreska pseudotaktowa	!	!	!LO:TX:t=P:problem=kreska pseudotaktowa	!	!	!	!	!	!	!	!
1D	-(am)	.	1A	-am	.	2A\	ar-	.	2d\	-am	.
*	*Xij	*	*	*	*	*	*	*	*	*	*
!	!	!	!	!	!	!	!	!	!LO:TX:t=P:problem=kreska pseudotaktowa	!	!
.	.	.	.	.	.	2.d\	-ce	.	2f\	in	.
=106-	=106-	=106-	=106-	=106-	=106-	=106-	=106-	=106-	=106-	=106-	=106-
*	*	*	*lig	*	*	*	*	*	*	*	*
0r	.	.	1c	in	.	.	.	.	2e\	ar-	.
.	.	.	.	.	.	4c\	.	.	.	.	.
.	.	.	.	.	.	1c	sy-	.	2.g\	-ce-	.
.	.	.	1d	.	.	.	.	.	.	.	.
.	.	.	.	.	.	.	.	.	4f\	.	.
!	!	!	!	!	!	!LO:TX:t=P:problem=kreska pseudotaktowa	!	!	!	!	!
.	.	.	.	.	.	2B-\	-de-	.	1f\	-Sy-	.
*	*	*	*Xlig	*	*	*	*	*	*	*	*
=107-	=107-	=107-	=107-	=107-	=107-	=107-	=107-	=107-	=107-	=107-	=107-
*lig	*	*	*	*	*	*	*	*	*	*	*
!	!	!	!LO:TX:t=P:problem=kreska pseudotaktowa	!	!	!	!	!	!	!	!
1C	in	.	1c	ar-	.	2.c\	.	.	.	.	.
!	!	!	!	!	!	!	!	!	!LO:TX:t=P:problem=kreska pseudotaktowa	!	!
.	.	.	.	.	.	.	.	.	2e\	-de-	.
.	.	.	.	.	.	4B-\	.	.	.	.	.
1D	.	.	1F	-ce	.	2A\	.	.	1f	-r(um)	.
!	!	!	!	!	!	!LO:TX:t=P:problem=kreska pseudotaktowa	!	!	!	!	!
.	.	.	.	.	.	2B-\	.	.	.	.	.
*Xlig	*	*	*	*	*	*	*	*	*	*	*
=108-	=108-	=108-	=108-	=108-	=108-	=108-	=108-	=108-	=108-	=108-	=108-
!	!	!	!LO:TX:t=P:problem=kreska pseudotaktowa	!	!	!	!	!	!	!	!
1C	ar-	.	1G	.	.	2.c\	.	.	2re	.	.
!	!	!	!	!	!	!	!	!	!LO:TX:t=P:problem=kreska pseudotaktowa	!	!
.	.	.	.	.	.	.	.	.	2e\	in	.
.	.	.	.	.	.	4c\	.	.	.	.	.
*	*	*	*lig	*	*	*	*	*	*	*	*
*custos:G	*	*	*	*	*	*	*	*	*	*	*
!LO:TX:t=P:problem=kreska pseudotaktowa	!	!	!	!	!	!LO:TX:t=P:problem=kreska pseudotaktowa	!	!	!	!	!
1FF	.	.	1F	sy-	.	1A	-rum	.	2f\	ar-	.
.	.	.	.	.	.	.	.	.	1d\	-ce	.
!LO:LB:g=original	!	!	!	!	!	!	!	!	!	!	!
=109-	=109-	=109-	=109-	=109-	=109-	=109-	=109-	=109-	=109-	=109-	=109-
2GG/	.	.	1E	.	.	2r	.	.	.	.	.
!	!	!	!	!	!	!	!	!	!LO:TX:t=P:problem=kreska pseudotaktowa	!	!
2AA/	-ce	.	.	.	.	2A/	Sy-	.	2c/	.	.
*	*	*	*Xlig	*	*	*	*	*	*	*	*
1BB-	sy-	.	1D	.	.	2F/	.	.	1d	Sy-	.
.	.	.	.	.	.	2B-\	.	.	.	.	.
=110-	=110-	=110-	=110-	=110-	=110-	=110-	=110-	=110-	=110-	=110-	=110-
1C	-de-	.	1E	-de-	.	2.G/	.	.	1c	-de-	.
!	!	!	!	!	!	!LO:TX:t=P:problem=kreska pseudotaktowa	!	!	!	!	!
.	.	.	.	.	.	4G/	-de-	.	.	.	.
0FFl;	-r(um)	.	0Fl;	-rum.	.	0Al;<	-r(um).	.	0cl	-rum.	.
!	!	!	!LO:LB:g=original	!	!	!LO:LB:g=original	!	!	!LO:LB:g=original	!	!
=111||	=111||	=111||	=111||	=111||	=111||	=111||	=111||	=111||	=111||	=111||	=111||
*	*	*	*M2/1	*	*	*M2/1	*	*	*M2/1	*	*
*	*	*	*met(c|)	*	*	*met(c|)	*	*	*met(c|)	*	*
*	*	*	*lig	*	*	*	*	*	*	*	*
!	!	!	!	!	!	!	!	!	!LO:TX:t=P:problem=kreska pseudotaktowa	!	!
!LO:TX:t=P:problem=przed kluczem inicjał A	!	!	!LO:TX:t=P:problem=przed kluczem inicjał A	!	!	!LO:TX:t=P:problem=przed kluczem inicjał A	!	!	!	!	!
2.FF/	A-	.	1F	A-	.	4F/	A-	.	0c	A-	.
.	.	.	.	.	.	4G/	.	.	.	.	.
.	.	.	.	.	.	4A/	.	.	.	.	.
!LO:TX:t=P:problem=kreska pseudotaktowa	!	!	!	!	!	!LO:TX:t=P:problem=kreska pseudotaktowa	!	!	!	!	!
4GG/	.	.	.	.	.	4B-\	.	.	.	.	.
4AA/	.	.	1E	.	.	2c\	.	.	.	.	.
4BB-/	.	.	.	.	.	.	.	.	.	.	.
1C/	.	.	.	.	.	4B-\	.	.	.	.	.
!	!	!	!	!	!	!LO:TX:t=P:problem=kreska pseudotaktowa	!	!	!	!	!
.	.	.	.	.	.	4A/	.	.	.	.	.
*	*	*	*Xlig	*	*	*	*	*	*	*	*
=112-	=112-	=112-	=112-	=112-	=112-	=112-	=112-	=112-	=112-	=112-	=112-
.	.	.	1D	.	.	4G/	.	.	1d	-men	.
.	.	.	.	.	.	4A/	.	.	.	.	.
2BB-/	.	.	.	.	.	2B-\	.	.	.	.	.
*	*	*	*lig	*	*	*	*	*	*	*	*
1C	.	.	1E	.	.	1G	.	.	2.c/	A-	.
!	!	!	!	!	!	!	!	!	!LO:TX:t=P:problem=kreska pseudotaktowa	!	!
.	.	.	.	.	.	.	.	.	4B-/	.	.
=113-	=113-	=113-	=113-	=113-	=113-	=113-	=113-	=113-	=113-	=113-	=113-
!LO:TX:t=P:problem=kreska pseudotaktowa	!	!	!	!	!	!	!	!	!	!	!
1FF	-men	.	1C	.	.	2A/	.	.	4A/	.	.
.	.	.	.	.	.	.	.	.	4F/	.	.
!	!	!	!	!	!	!LO:TX:t=P:problem=kreska pseudotaktowa	!	!	!	!	!
.	.	.	.	.	.	2F/	-men	.	1f	.	.
*	*	*	*Xlig	*	*	*	*	*	*	*	*
*	*	*	*lig	*	*	*	*	*	*	*	*
1rD	.	.	1G	-men	.	1B-	A-	.	.	.	.
!	!	!	!	!	!	!	!	!	!LO:TX:t=P:problem=kreska pseudotaktowa	!	!
.	.	.	.	.	.	.	.	.	2e\	.	.
=114-	=114-	=114-	=114-	=114-	=114-	=114-	=114-	=114-	=114-	=114-	=114-
!	!	!	!LO:TX:t=P:problem=kreska pseudotaktowa	!	!	!	!	!	!	!	!
2rC	.	.	1F	.	.	2A/	.	.	2f\	-men	.
*	*ij	*	*	*	*	*	*	*	*	*ij	*
!LO:TX:t=P:problem=kreska pseudotaktowa	!	!	!	!	!	!	!	!	!	!	!
2BB-/	A-	.	.	.	.	1B-	.	.	2d\	A-	.
*	*	*	*Xlig	*	*	*	*	*	*	*	*
2GG/	.	.	1G	Al-	.	.	.	.	4g\	.	.
.	.	.	.	.	.	.	.	.	4f\	.	.
!	!	!	!	!	!	!LO:TX:t=P:problem=kreska pseudotaktowa	!	!	!	!	!
4C/	.	.	.	.	.	2G/	.	.	4e\	.	.
!	!	!	!	!	!	!	!	!	!LO:TX:t=P:problem=kreska pseudotaktowa	!	!
4BB-/	.	.	.	.	.	.	.	.	4d\	.	.
=115-	=115-	=115-	=115-	=115-	=115-	=115-	=115-	=115-	=115-	=115-	=115-
4AA/	.	.	1A	.	.	4c\	.	.	2c\	.	.
4GG/	.	.	.	.	.	4B-\	.	.	.	.	.
!LO:TX:t=P:problem=kreska pseudotaktowa	!	!	!	!	!	!	!	!	!LO:TX:t=P:problem=kreska pseudotaktowa	!	!
2FF/	.	.	.	.	.	4A/	.	.	2f\	.	.
.	.	.	.	.	.	4G/	.	.	.	.	.
*	*	*	*lig	*	*	*	*	*	*	*	*
1BB-	-men	.	1B-	-le-	.	2.F/	.	.	2.d\	.	.
!	!	!	!	!	!	!LO:TX:t=P:problem=kreska pseudotaktowa	!	!	!	!	!
.	.	.	.	.	.	4G/	.	.	4e\	.	.
=116-	=116-	=116-	=116-	=116-	=116-	=116-	=116-	=116-	=116-	=116-	=116-
4FF/	A-	.	1A	.	.	4A/	.	.	2f\	.	.
4GG/	.	.	.	.	.	4B-\	.	.	.	.	.
4AA/	.	.	.	.	.	1c	.	.	4e\	.	.
!LO:TX:t=P:problem=kreska pseudotaktowa	!	!	!	!	!	!	!	!	!LO:TX:t=P:problem=kreska pseudotaktowa	!	!
4BB-/	.	.	.	.	.	.	.	.	4d\	.	.
*	*	*	*Xlig	*	*	*	*	*	*	*	*
2C/	.	.	0G	-lu-	.	.	.	.	2e\	.	.
!	!	!	!	!	!	!LO:TX:t=P:problem=kreska pseudotaktowa	!	!	!	!	!
2BB-/	.	.	.	.	.	2d\	.	.	1f\	.	.
=117-	=117-	=117-	=117-	=117-	=117-	=117-	=117-	=117-	=117-	=117-	=117-
!	!	!	!	!	!	!LO:TX:t=P:problem=kreska pseudotaktowa	!	!	!	!	!
1C	.	.	.	.	.	1c	-men	.	.	.	.
.	.	.	.	.	.	.	.	.	2e\	.	.
!LO:TX:t=P:problem=kreska pseudotaktowa	!	!	!	!	!	!	!	!	!LO:TX:t=P:problem=kreska pseudotaktowa	!	!
1FF	-men	.	[1Fl;	-ia.	.	2r	.	.	0f	-men	.
*	*Xij	*	*	*	*	*	*	*	*	*Xij	*
.	.	.	.	.	.	2c\	Al-	.	.	.	.
=118-	=118-	=118-	=118-	=118-	=118-	=118-	=118-	=118-	=118-	=118-	=118-
2r	.	.	0F_	.	.	2.c\	-le-	.	.	.	.
2F\	Al-	.	.	.	.	.	.	.	.	.	.
!	!	!	!	!	!	!LO:TX:t=P:problem=kreska pseudotaktowa	!	!	!	!	!
.	.	.	.	.	.	4B-\	.	.	.	.	.
2.F\	-le-	.	.	.	.	2.A/	.	.	2r	.	.
.	.	.	.	.	.	.	.	.	2f\	Al-	.
!LO:TX:t=P:problem=kreska pseudotaktowa	!	!	!	!	!	!	!	!	!	!	!
4E\	.	.	.	.	.	4G/	.	.	.	.	.
=119-	=119-	=119-	=119-	=119-	=119-	=119-	=119-	=119-	=119-	=119-	=119-
2.D/	.	.	0F_	.	.	2F/	-lu-	.	2.f\	-le-	.
!	!	!	!	!	!	!LO:TX:t=P:problem=kreska pseudotaktowa	!	!	!	!	!
.	.	.	.	.	.	2f\	-ia	.	.	.	.
!	!	!	!	!	!	!	!	!	!LO:TX:t=P:problem=kreska pseudotaktowa	!	!
4C/	.	.	.	.	.	.	.	.	4e\	.	.
*	*	*	*	*	*	*	*ij	*	*	*	*
0.BB-	-lu-	.	.	.	.	2.f\	Al-	.	2.d\	.	.
!	!	!	!	!	!	!	!	!	!LO:TX:t=P:problem=kreska pseudotaktowa	!	!
.	.	.	.	.	.	4e\	.	.	4c/	.	.
=120-	=120-	=120-	=120-	=120-	=120-	=120-	=120-	=120-	=120-	=120-	=120-
.	.	.	0F_	.	.	2.d\	-le-	.	2.B-/	.	.
!	!	!	!	!	!	!LO:TX:t=P:problem=kreska pseudotaktowa	!	!	!LO:TX:t=P:problem=kreska pseudotaktowa	!	!
.	.	.	.	.	.	4c\	.	.	4c/	.	.
.	.	.	.	.	.	4B-\	.	.	1.d	-lu-	.
.	.	.	.	.	.	4A\	.	.	.	.	.
.	.	.	.	.	.	1B-\	-lu-	.	.	.	.
=121-	=121-	=121-	=121-	=121-	=121-	=121-	=121-	=121-	=121-	=121-	=121-
0FFl	-ia	.	0F]	.	.	.	.	.	.	.	.
.	.	.	.	.	.	4A\	-ia.	.	4c/	-ia.	.
*	*	*	*	*	*	*	*Xij	*	*	*	*
.	.	.	.	.	.	4G/	.	.	4B-/	.	.
.	.	.	.	.	.	1Al;;	.	.	1cl	.	.
==	==	==	==	==	==	==	==	==	==	==	==
*-	*-	*-	*-	*-	*-	*-	*-	*-	*-	*-	*-
!!!system-decoration: [s1,s2,s3,s4]
!!!RDF**kern: < = below
!!!RDF**kern: l = terminal long
!!!ENC: Marta Lawrence
!!!END: 2021-03-10
!!!ENC: Andrzej Borzym
!!!END: 2021-02-21
